; generated by PrusaSlicer 2.3.2+win64 on 2021-07-20 at 10:08:12 UTC

; 

; external perimeters extrusion width = 0.45mm
; perimeters extrusion width = 0.45mm
; infill extrusion width = 0.45mm
; solid infill extrusion width = 0.45mm
; top infill extrusion width = 0.40mm
; first layer extrusion width = 0.42mm

M73 P0 R5
M73 Q0 S5
M201 X1000 Y1000 Z200 E5000 ; sets maximum accelerations, mm/sec^2
M203 X200 Y200 Z12 E120 ; sets maximum feedrates, mm/sec
M204 P1250 R1250 T1250 ; sets acceleration (P, T) and retract acceleration (R), mm/sec^2
M205 X8.00 Y8.00 Z0.40 E4.50 ; sets the jerk limits, mm/sec
M205 S0 T0 ; sets the minimum extruding and travel feed rate, mm/sec
M107
;TYPE:Custom
M862.3 P "MK3S" ; printer model check
M862.1 P0.4 ; nozzle diameter check
M115 U3.9.2 ; tell printer latest fw version
G90 ; use absolute coordinates
M83 ; extruder relative mode
M104 S215 ; set extruder temp
M140 S60 ; set bed temp
M190 S60 ; wait for bed temp
M109 S215 ; wait for extruder temp
G28 W ; home all without mesh bed level
G80 ; mesh bed leveling
G1 Y-3.0 F1000.0 ; go outside print area
G92 E0.0
G1 X60.0 E9.0 F1000.0 ; intro line
M73 P1 R5
M73 Q1 S5
G1 X100.0 E12.5 F1000.0 ; intro line
G92 E0.0
M221 S95

; Don't change E values below. Excessive value can damage the printer.
M907 E430 ; set extruder motor current
G21 ; set units to millimeters
G90 ; use absolute coordinates
M83 ; use relative distances for extrusion
M900 K0.05 ; Filament gcode LA 1.5
M900 K30 ; Filament gcode LA 1.0
;LAYER_CHANGE
;Z:0.2
;HEIGHT:0.2
;BEFORE_LAYER_CHANGE
G92 E0.0
;0.2


G1 E-0.80000 F2100.000
G1 Z0.400 F10800.000
;AFTER_LAYER_CHANGE
;0.2
; printing object Shape-Sphere id:0 copy 0
G1 X124.387 Y35.487
M73 P2 R5
M73 Q2 S5
G1 Z0.200
G1 E0.80000 F2100.000
M204 S1000
;TYPE:Perimeter
;WIDTH:0.42
G1 F900
G1 X124.445 Y35.348 E0.00473
G1 X124.513 Y35.269 E0.00328
G1 X124.624 Y35.205 E0.00401
G1 X124.814 Y35.188 E0.00598
G1 X124.935 Y35.232 E0.00401
G1 X125.033 Y35.314 E0.00401
G1 X125.113 Y35.487 E0.00598
G1 X125.113 Y35.615 E0.00401
G1 X125.056 Y35.755 E0.00473
G1 X124.987 Y35.834 E0.00328
G1 X124.814 Y35.914 E0.00598
G1 X124.686 Y35.914 E0.00401
G1 X124.574 Y35.874 E0.00376
G1 X124.468 Y35.788 E0.00426
G1 X124.404 Y35.677 E0.00401
G1 X124.382 Y35.547 E0.00414
G1 X124.015 Y35.422 F10800.000
;TYPE:External perimeter
G1 F900
G1 X124.048 Y35.299 E0.00399
G1 X124.120 Y35.154 E0.00507
G1 X124.270 Y34.979 E0.00724
G1 X124.495 Y34.849 E0.00814
G1 X124.618 Y34.816 E0.00399
G1 X124.880 Y34.816 E0.00823
G1 X125.124 Y34.904 E0.00814
G1 X125.323 Y35.071 E0.00814
G1 X125.453 Y35.296 E0.00814
G1 X125.486 Y35.422 E0.00408
G1 X125.486 Y35.681 E0.00814
G1 X125.453 Y35.804 E0.00399
G1 X125.381 Y35.949 E0.00507
G1 X125.231 Y36.124 E0.00724
G1 X125.006 Y36.253 E0.00814
G1 X124.750 Y36.298 E0.00814
G1 X124.621 Y36.287 E0.00408
G1 X124.380 Y36.200 E0.00804
G1 X124.178 Y36.032 E0.00823
G1 X124.048 Y35.807 E0.00814
G1 X124.015 Y35.681 E0.00408
G1 X124.009 Y35.481 E0.00626
G1 X124.133 Y35.375 F10800.000
G1 X124.739 Y35.535
;TYPE:Gap fill
;WIDTH:0.39492
G1 F900
G1 X124.739 Y35.554 E0.00057
G1 X124.752 Y35.559 F10800.000
G1 F900
G1 X124.750 Y35.551 E0.00022
;WIDTH:0.39492
G1
G1 X124.755 Y35.548 E0.00016
; stop printing object Shape-Sphere id:0 copy 0
M106 S84.15
;LAYER_CHANGE
;Z:0.4
;HEIGHT:0.2
;BEFORE_LAYER_CHANGE
G92 E0.0
;0.4


;WIPE_START
G1 F8640.000
G1 X124.750 Y35.551 E-0.00124
;WIPE_END
G1 E-0.79876 F2100.000
G1 Z0.600 F10800.000
;AFTER_LAYER_CHANGE
;0.4
M104 S210 ; set temperature
; printing object Shape-Sphere id:0 copy 0
G1 X125.026 Y34.522
G1 Z0.400
G1 E0.80000 F2100.000
M204 S800
;TYPE:Perimeter
;WIDTH:0.45
G1 F900
G1 X125.285 Y34.625 E0.00946
G1 X125.438 Y34.732 E0.00631
G1 X125.570 Y34.864 E0.00631
G1 X125.677 Y35.016 E0.00631
G1 X125.756 Y35.185 E0.00631
G1 X125.804 Y35.366 E0.00631
G1 X125.820 Y35.551 E0.00631
G1 X125.804 Y35.737 E0.00631
G1 X125.756 Y35.917 E0.00631
G1 X125.677 Y36.086 E0.00631
G1 X125.570 Y36.239 E0.00631
G1 X125.438 Y36.371 E0.00631
G1 X125.286 Y36.477 E0.00628
G1 X125.116 Y36.557 E0.00635
G1 X124.936 Y36.605 E0.00631
G1 X124.750 Y36.621 E0.00631
G1 X124.565 Y36.605 E0.00631
G1 X124.385 Y36.557 E0.00631
G1 X124.215 Y36.478 E0.00631
G1 X124.063 Y36.371 E0.00631
G1 X123.931 Y36.239 E0.00631
G1 X123.824 Y36.087 E0.00628
G1 X123.745 Y35.917 E0.00635
G1 X123.697 Y35.737 E0.00631
G1 X123.681 Y35.551 E0.00631
G1 X123.697 Y35.366 E0.00631
G1 X123.745 Y35.185 E0.00631
G1 X123.824 Y35.016 E0.00631
G1 X123.931 Y34.864 E0.00631
G1 X124.063 Y34.732 E0.00631
G1 X124.215 Y34.625 E0.00631
G1 X124.385 Y34.546 E0.00631
G1 X124.565 Y34.498 E0.00631
G1 X124.750 Y34.481 E0.00631
G1 X124.968 Y34.506 E0.00740
M204 S1000
;WIPE_START
G1 F8640.000
G1 X125.285 Y34.625 E-0.07829
G1 X125.438 Y34.732 E-0.04306
G1 X125.570 Y34.864 E-0.04306
G1 X125.677 Y35.016 E-0.04306
G1 X125.756 Y35.185 E-0.04306
G1 X125.804 Y35.366 E-0.04306
G1 X125.820 Y35.551 E-0.04306
G1 X125.804 Y35.737 E-0.04306
G1 X125.756 Y35.917 E-0.04306
G1 X125.677 Y36.086 E-0.04306
G1 X125.570 Y36.239 E-0.04306
G1 X125.438 Y36.371 E-0.04306
G1 X125.286 Y36.477 E-0.04287
G1 X125.116 Y36.557 E-0.04330
G1 X124.936 Y36.605 E-0.04302
G1 X124.750 Y36.621 E-0.04306
G1 X124.596 Y36.608 E-0.03579
;WIPE_END
G1 E-0.04000 F2100.000
G1 Z0.800 F10800.000
G1 X124.750 Y37.030
G1 Z0.400
G1 E0.80000 F2100.000
M204 S800
;TYPE:External perimeter
G1 F900
G1 X124.494 Y37.007 E0.00872
G1 X124.245 Y36.941 E0.00872
G1 X124.011 Y36.832 E0.00872
G1 X123.800 Y36.684 E0.00872
G1 X123.618 Y36.502 E0.00872
G1 X123.471 Y36.291 E0.00869
G1 X123.361 Y36.057 E0.00876
G1 X123.294 Y35.808 E0.00872
G1 X123.272 Y35.551 E0.00872
G1 X123.294 Y35.295 E0.00872
G1 X123.361 Y35.046 E0.00872
G1 X123.470 Y34.812 E0.00872
G1 X123.618 Y34.601 E0.00872
G1 X123.800 Y34.419 E0.00872
G1 X124.011 Y34.271 E0.00872
G1 X124.245 Y34.162 E0.00872
G1 X124.494 Y34.095 E0.00872
G1 X124.750 Y34.073 E0.00872
G1 X125.006 Y34.095 E0.00869
G1 X125.256 Y34.162 E0.00876
G1 X125.490 Y34.271 E0.00872
G1 X125.701 Y34.419 E0.00872
G1 X125.883 Y34.601 E0.00872
G1 X126.031 Y34.812 E0.00872
G1 X126.140 Y35.046 E0.00872
G1 X126.206 Y35.295 E0.00872
G1 X126.229 Y35.551 E0.00872
G1 X126.206 Y35.808 E0.00872
G1 X126.140 Y36.057 E0.00872
G1 X126.031 Y36.291 E0.00872
G1 X125.883 Y36.502 E0.00872
G1 X125.701 Y36.684 E0.00872
G1 X125.490 Y36.831 E0.00869
G1 X125.256 Y36.941 E0.00876
G1 X125.007 Y37.007 E0.00872
G1 X124.810 Y37.025 E0.00669
M204 S1000
G1 X124.622 Y36.807 F10800.000
;WIPE_START
G1 F8640.000
G1 X124.494 Y37.007 E-0.07319
G1 X124.245 Y36.941 E-0.05951
G1 X124.011 Y36.832 E-0.05951
G1 X123.800 Y36.684 E-0.05951
G1 X123.618 Y36.502 E-0.05951
G1 X123.471 Y36.291 E-0.05929
G1 X123.361 Y36.057 E-0.05974
G1 X123.294 Y35.808 E-0.05949
G1 X123.272 Y35.551 E-0.05951
G1 X123.294 Y35.295 E-0.05951
G1 X123.361 Y35.046 E-0.05951
G1 X123.470 Y34.812 E-0.05951
G1 X123.550 Y34.698 E-0.03222
;WIPE_END
G1 E-0.04000 F2100.000
G1 Z0.800 F10800.000
G1 X125.689 Y35.636
G1 Z0.400
G1 E0.80000 F2100.000
;TYPE:Bridge infill
;WIDTH:0.43202
;HEIGHT:0.389872
G1 F1800.000
G1 X125.131 Y36.193 E0.04808
G1 X125.006 Y36.253 E0.00847
G1 X124.750 Y36.298 E0.01579
G1 X124.621 Y36.287 E0.00794
G1 X124.423 Y36.220 E0.01273
G1 X125.419 Y35.224 E0.08583
M73 Q3 S5
G1 X125.323 Y35.071 E0.01099
G1 X125.231 Y34.979 E0.00794
G1 X125.078 Y34.883 E0.01100
G1 X124.082 Y35.879 E0.08582
M73 P3 R5
G1 X124.015 Y35.681 E0.01273
G1 X124.003 Y35.551 E0.00794
G1 X124.049 Y35.296 E0.01581
G1 X124.109 Y35.170 E0.00848
G1 X124.666 Y34.613 E0.04804
; stop printing object Shape-Sphere id:0 copy 0
M106 S170.85
;LAYER_CHANGE
;Z:0.6
;HEIGHT:0.2
;BEFORE_LAYER_CHANGE
G92 E0.0
;0.6


;WIPE_START
G1 F8640.000
G1 X124.109 Y35.170 E-0.18199
G1 X124.049 Y35.296 E-0.03214
G1 X124.003 Y35.551 E-0.05990
G1 X124.015 Y35.681 E-0.03006
G1 X124.082 Y35.879 E-0.04821
G1 X125.078 Y34.883 E-0.32514
G1 X125.231 Y34.979 E-0.04166
G1 X125.323 Y35.071 E-0.03006
G1 X125.348 Y35.111 E-0.01082
;WIPE_END
G1 E-0.04000 F2100.000
G1 Z0.800 F10800.000
;AFTER_LAYER_CHANGE
;0.6
; printing object Shape-Sphere id:0 copy 0
G1 X125.965 Y34.679
G1 Z0.600
G1 E0.80000 F2100.000
M204 S800
;TYPE:Perimeter
;WIDTH:0.45
G1 F900
G1 X126.051 Y34.801 E0.00505
G1 X126.161 Y35.038 E0.00886
G1 X126.229 Y35.291 E0.00886
G1 X126.252 Y35.551 E0.00886
G1 X126.229 Y35.812 E0.00886
G1 X126.161 Y36.065 E0.00886
G1 X126.051 Y36.302 E0.00886
G1 X125.900 Y36.516 E0.00886
G1 X125.715 Y36.701 E0.00886
G1 X125.501 Y36.851 E0.00886
G1 X125.264 Y36.962 E0.00886
G1 X125.011 Y37.030 E0.00886
G1 X124.750 Y37.053 E0.00886
G1 X124.490 Y37.030 E0.00886
G1 X124.237 Y36.962 E0.00886
G1 X124.000 Y36.851 E0.00886
G1 X123.785 Y36.701 E0.00886
G1 X123.600 Y36.516 E0.00886
G1 X123.450 Y36.302 E0.00886
G1 X123.340 Y36.065 E0.00886
G1 X123.272 Y35.812 E0.00886
G1 X123.249 Y35.551 E0.00886
G1 X123.272 Y35.291 E0.00886
G1 X123.340 Y35.038 E0.00886
G1 X123.450 Y34.801 E0.00886
G1 X123.600 Y34.586 E0.00886
G1 X123.785 Y34.401 E0.00886
G1 X124.000 Y34.251 E0.00886
G1 X124.237 Y34.141 E0.00886
G1 X124.490 Y34.073 E0.00886
G1 X124.750 Y34.050 E0.00886
G1 X125.011 Y34.073 E0.00886
G1 X125.264 Y34.141 E0.00886
G1 X125.501 Y34.251 E0.00886
G1 X125.715 Y34.401 E0.00886
G1 X125.931 Y34.629 E0.01061
M204 S1000
G1 X126.264 Y34.396 F10800.000
M204 S800
;TYPE:External perimeter
G1 F900
G1 X126.404 Y34.596 E0.00828
G1 X126.545 Y34.898 E0.01127
G1 X126.631 Y35.220 E0.01127
G1 X126.660 Y35.551 E0.01127
G1 X126.631 Y35.883 E0.01127
G1 X126.545 Y36.205 E0.01127
G1 X126.404 Y36.506 E0.01127
G1 X126.213 Y36.779 E0.01127
G1 X125.978 Y37.014 E0.01127
G1 X125.705 Y37.205 E0.01127
G1 X125.404 Y37.346 E0.01127
G1 X125.082 Y37.432 E0.01127
G1 X124.750 Y37.461 E0.01127
G1 X124.419 Y37.432 E0.01127
G1 X124.097 Y37.346 E0.01127
G1 X123.796 Y37.205 E0.01127
G1 X123.523 Y37.014 E0.01127
G1 X123.287 Y36.779 E0.01127
G1 X123.096 Y36.506 E0.01127
G1 X122.956 Y36.205 E0.01127
G1 X122.870 Y35.883 E0.01127
G1 X122.841 Y35.551 E0.01127
G1 X122.870 Y35.220 E0.01127
G1 X122.956 Y34.898 E0.01127
G1 X123.096 Y34.596 E0.01127
G1 X123.287 Y34.324 E0.01127
G1 X123.523 Y34.088 E0.01127
G1 X123.796 Y33.897 E0.01127
G1 X124.097 Y33.757 E0.01127
G1 X124.419 Y33.671 E0.01127
G1 X124.750 Y33.642 E0.01127
G1 X125.082 Y33.671 E0.01127
G1 X125.404 Y33.757 E0.01127
G1 X125.705 Y33.897 E0.01127
G1 X125.978 Y34.088 E0.01127
G1 X126.230 Y34.347 E0.01221
M204 S1000
G1 X126.178 Y34.625 F10800.000
;WIPE_START
G1 F8640.000
G1 X126.404 Y34.596 E-0.07037
G1 X126.545 Y34.898 E-0.07687
G1 X126.631 Y35.220 E-0.07687
G1 X126.660 Y35.551 E-0.07687
G1 X126.631 Y35.883 E-0.07687
G1 X126.545 Y36.205 E-0.07687
G1 X126.404 Y36.506 E-0.07687
G1 X126.213 Y36.779 E-0.07687
G1 X125.978 Y37.014 E-0.07687
G1 X125.713 Y37.200 E-0.07467
;WIPE_END
G1 E-0.04000 F2100.000
G1 Z1.000 F10800.000
G1 X125.062 Y34.221
G1 Z0.600
G1 E0.80000 F2100.000
;TYPE:Solid infill
;WIDTH:0.507496
G1 F900
G1 X125.785 Y34.954 E0.03978
G1 X125.873 Y35.143 E0.00804
G1 X125.927 Y35.344 E0.00804
G1 X125.945 Y35.551 E0.00804
G1 X125.928 Y35.744 E0.00746
G1 X124.558 Y34.373 E0.07486
G1 X124.342 Y34.429 E0.00862
G1 X124.089 Y34.562 E0.01103
G1 X125.740 Y36.213 E0.09021
G1 X125.666 Y36.319 E0.00503
G1 X125.518 Y36.467 E0.00804
G1 X125.412 Y36.541 E0.00503
G1 X123.761 Y34.890 E0.09021
G1 X123.628 Y35.143 E0.01103
G1 X123.573 Y35.359 E0.00862
G1 X124.934 Y36.721 E0.07440
M73 Q4 S5
G1 X124.744 Y36.746 E0.00741
G1 X124.543 Y36.728 E0.00780
G1 X124.342 Y36.674 E0.00804
G1 X124.153 Y36.586 E0.00804
G1 X123.409 Y35.853 E0.04034
; stop printing object Shape-Sphere id:0 copy 0
M106 S255
;LAYER_CHANGE
;Z:0.8
;HEIGHT:0.2
;BEFORE_LAYER_CHANGE
G92 E0.0
;0.8


;WIPE_START
M73 P4 R5
G1 F8640.000
G1 X124.153 Y36.586 E-0.24112
G1 X124.342 Y36.674 E-0.04809
G1 X124.543 Y36.728 E-0.04809
G1 X124.744 Y36.746 E-0.04661
G1 X124.934 Y36.721 E-0.04431
G1 X123.918 Y35.705 E-0.33179
;WIPE_END
G1 E-0.04000 F2100.000
G1 Z1.000 F10800.000
;AFTER_LAYER_CHANGE
;0.8
; printing object Shape-Sphere id:0 copy 0
G1 X122.871 Y35.883
G1 Z0.800
G1 E0.80000 F2100.000
M204 S800
;TYPE:Perimeter
;WIDTH:0.45
G1 F900
G1 X122.842 Y35.551 E0.01126
G1 X122.871 Y35.220 E0.01126
G1 X122.957 Y34.899 E0.01126
G1 X123.098 Y34.597 E0.01126
G1 X123.288 Y34.325 E0.01126
G1 X123.524 Y34.089 E0.01126
G1 X123.796 Y33.899 E0.01126
G1 X124.098 Y33.758 E0.01126
G1 X124.415 Y33.673 E0.01113
G1 X124.780 Y33.645 E0.01239
G1 X125.082 Y33.672 E0.01025
G1 X125.403 Y33.758 E0.01126
G1 X125.705 Y33.899 E0.01126
G1 X125.977 Y34.089 E0.01126
G1 X126.212 Y34.325 E0.01126
G1 X126.403 Y34.597 E0.01126
G1 X126.544 Y34.899 E0.01126
G1 X126.630 Y35.220 E0.01126
G1 X126.659 Y35.551 E0.01126
G1 X126.630 Y35.883 E0.01126
G1 X126.544 Y36.204 E0.01126
G1 X126.403 Y36.506 E0.01126
G1 X126.212 Y36.778 E0.01126
G1 X125.977 Y37.013 E0.01126
G1 X125.705 Y37.204 E0.01126
G1 X125.403 Y37.345 E0.01126
G1 X125.082 Y37.431 E0.01126
G1 X124.750 Y37.460 E0.01126
G1 X124.419 Y37.431 E0.01126
G1 X124.098 Y37.345 E0.01126
G1 X123.796 Y37.204 E0.01126
G1 X123.524 Y37.013 E0.01126
G1 X123.291 Y36.781 E0.01113
G1 X123.085 Y36.479 E0.01239
G1 X122.957 Y36.204 E0.01025
G1 X122.886 Y35.941 E0.00923
M204 S1000
G1 X122.493 Y36.046 F10800.000
M204 S800
;TYPE:External perimeter
G1 F900
G1 X122.468 Y35.954 E0.00324
G1 X122.433 Y35.551 E0.01367
G1 X122.468 Y35.149 E0.01367
G1 X122.573 Y34.759 E0.01367
G1 X122.744 Y34.393 E0.01367
G1 X122.975 Y34.062 E0.01367
G1 X123.261 Y33.776 E0.01367
G1 X123.592 Y33.545 E0.01367
G1 X123.958 Y33.374 E0.01367
G1 X124.347 Y33.270 E0.01362
G1 X124.783 Y33.237 E0.01480
G1 X125.153 Y33.269 E0.01258
G1 X125.543 Y33.374 E0.01367
G1 X125.909 Y33.545 E0.01367
G1 X126.240 Y33.776 E0.01367
G1 X126.525 Y34.062 E0.01367
G1 X126.757 Y34.393 E0.01367
G1 X126.928 Y34.759 E0.01367
G1 X127.032 Y35.149 E0.01367
G1 X127.068 Y35.551 E0.01367
G1 X127.032 Y35.954 E0.01367
G1 X126.928 Y36.344 E0.01367
G1 X126.757 Y36.710 E0.01367
G1 X126.525 Y37.041 E0.01367
G1 X126.240 Y37.326 E0.01367
G1 X125.909 Y37.558 E0.01367
G1 X125.543 Y37.729 E0.01367
G1 X125.153 Y37.833 E0.01367
G1 X124.750 Y37.869 E0.01367
G1 X124.348 Y37.833 E0.01367
G1 X123.958 Y37.729 E0.01367
G1 X123.592 Y37.558 E0.01367
G1 X123.261 Y37.326 E0.01367
G1 X122.976 Y37.042 E0.01362
G1 X122.730 Y36.681 E0.01480
G1 X122.573 Y36.344 E0.01258
G1 X122.509 Y36.104 E0.00840
M204 S1000
G1 X122.559 Y35.976 F10800.000
;WIPE_START
G1 F8640.000
G1 X122.468 Y35.954 E-0.03593
G1 X122.433 Y35.551 E-0.09326
G1 X122.468 Y35.149 E-0.09326
G1 X122.573 Y34.759 E-0.09326
G1 X122.744 Y34.393 E-0.09326
G1 X122.975 Y34.062 E-0.09326
G1 X123.261 Y33.776 E-0.09326
G1 X123.592 Y33.545 E-0.09326
G1 X123.871 Y33.414 E-0.07122
;WIPE_END
G1 E-0.04000 F2100.000
G1 Z1.200 F10800.000
G1 X125.276 Y37.252
G1 Z0.800
G1 E0.80000 F2100.000
;TYPE:Solid infill
;WIDTH:0.492794
G1 F900
G1 X126.049 Y36.480 E0.04086
G1 X126.138 Y36.352 E0.00583
G1 X126.256 Y36.099 E0.01045
G1 X126.328 Y35.830 E0.01045
G1 X126.352 Y35.541 E0.01084
G1 X124.740 Y37.152 E0.08527
G1 X124.472 Y37.129 E0.01005
G1 X124.200 Y37.056 E0.01054
G1 X126.255 Y35.001 E0.10869
M73 Q5 S5
G1 X126.138 Y34.750 E0.01035
M73 P5 R5
G1 X126.027 Y34.592 E0.00721
G1 X123.792 Y36.828 E0.11828
G1 X123.527 Y36.585 E0.01343
G1 X123.475 Y36.509 E0.00347
G1 X125.709 Y34.274 E0.11819
G1 X125.551 Y34.164 E0.00720
G1 X125.300 Y34.047 E0.01036
G1 X123.246 Y36.101 E0.10869
G1 X123.173 Y35.830 E0.01053
G1 X123.149 Y35.562 E0.01005
G1 X124.758 Y33.953 E0.08510
G1 X124.467 Y33.975 E0.01093
G1 X124.203 Y34.046 E0.01023
G1 X123.949 Y34.164 E0.01045
G1 X123.821 Y34.254 E0.00585
G1 X123.049 Y35.026 E0.04084
; stop printing object Shape-Sphere id:0 copy 0
;LAYER_CHANGE
;Z:1
;HEIGHT:0.2
;BEFORE_LAYER_CHANGE
G92 E0.0
;1


;WIPE_START
G1 F8640.000
G1 X123.821 Y34.254 E-0.25209
G1 X123.949 Y34.164 E-0.03608
G1 X124.203 Y34.046 E-0.06448
G1 X124.467 Y33.975 E-0.06314
G1 X124.758 Y33.953 E-0.06745
G1 X123.910 Y34.801 E-0.27676
;WIPE_END
G1 E-0.04000 F2100.000
G1 Z1.200 F10800.000
;AFTER_LAYER_CHANGE
;1
; printing object Shape-Sphere id:0 copy 0
G1 X123.070 Y34.141
G1 Z1.000
G1 E0.80000 F2100.000
M204 S800
;TYPE:Perimeter
;WIDTH:0.45
G1 F900
