; generated by PrusaSlicer 2.3.2+win64 on 2021-07-20 at 11:16:48 UTC

; 

; external perimeters extrusion width = 0.45mm
; perimeters extrusion width = 0.45mm
; infill extrusion width = 0.45mm
; solid infill extrusion width = 0.45mm
; top infill extrusion width = 0.40mm
; first layer extrusion width = 0.42mm

M73 P0 R7
M73 Q0 S7
M201 X1000 Y1000 Z200 E5000 ; sets maximum accelerations, mm/sec^2
M203 X200 Y200 Z12 E120 ; sets maximum feedrates, mm/sec
M204 P1250 R1250 T1250 ; sets acceleration (P, T) and retract acceleration (R), mm/sec^2
M205 X8.00 Y8.00 Z0.40 E4.50 ; sets the jerk limits, mm/sec
M205 S0 T0 ; sets the minimum extruding and travel feed rate, mm/sec
M107
;TYPE:Custom
M862.3 P "MK3S" ; printer model check
M862.1 P0.4 ; nozzle diameter check
M115 U3.9.2 ; tell printer latest fw version
G90 ; use absolute coordinates
M83 ; extruder relative mode
M104 S215 ; set extruder temp
M140 S60 ; set bed temp
M190 S60 ; wait for bed temp
M109 S215 ; wait for extruder temp
G28 W ; home all without mesh bed level
G80 ; mesh bed leveling
G1 Y-3.0 F1000.0 ; go outside print area
G92 E0.0
G1 X60.0 E9.0 F1000.0 ; intro line
G1 X100.0 E12.5 F1000.0 ; intro line
G92 E0.0
M221 S95

; Don't change E values below. Excessive value can damage the printer.
M907 E430 ; set extruder motor current
G21 ; set units to millimeters
G90 ; use absolute coordinates
M83 ; use relative distances for extrusion
M900 K0.05 ; Filament gcode LA 1.5
M900 K30 ; Filament gcode LA 1.0
;LAYER_CHANGE
;Z:0.2
;HEIGHT:0.2
;BEFORE_LAYER_CHANGE
G92 E0.0
;0.2


M73 P1 R7
M73 Q1 S7
G1 E-0.80000 F2100.000
G1 Z0.400 F10800.000
;AFTER_LAYER_CHANGE
;0.2
; printing object Shape-Cylinder id:0 copy 0
G1 X133.194 Y36.150
G1 Z0.200
G1 E0.80000 F2100.000
M204 S1000
;TYPE:Perimeter
;WIDTH:0.42
G1 F900
G1 X133.316 Y35.724 E0.01390
G1 X133.449 Y35.386 E0.01139
G1 X133.651 Y34.989 E0.01395
G1 X133.847 Y34.683 E0.01139
G1 X134.121 Y34.332 E0.01395
G1 X134.372 Y34.067 E0.01147
G1 X134.645 Y33.825 E0.01141
G1 X135.004 Y33.565 E0.01391
G1 X135.388 Y33.343 E0.01390
G1 X135.720 Y33.192 E0.01144
G1 X136.065 Y33.070 E0.01147
G1 X136.494 Y32.963 E0.01388
G1 X136.931 Y32.901 E0.01382
G1 X137.374 Y32.886 E0.01390
G1 X137.736 Y32.908 E0.01136
G1 X138.176 Y32.978 E0.01398
G1 X138.528 Y33.069 E0.01139
G1 X138.946 Y33.221 E0.01395
G1 X139.274 Y33.377 E0.01139
G1 X139.653 Y33.605 E0.01387
G1 X140.005 Y33.871 E0.01382
G1 X140.329 Y34.172 E0.01385
G1 X140.617 Y34.504 E0.01379
G1 X140.870 Y34.865 E0.01382
G1 X141.085 Y35.253 E0.01390
G1 X141.231 Y35.588 E0.01144
G1 X141.346 Y35.934 E0.01144
G1 X141.446 Y36.366 E0.01390
G1 X141.500 Y36.806 E0.01390
G1 X141.510 Y37.168 E0.01136
G1 X141.479 Y37.613 E0.01398
G1 X141.418 Y37.973 E0.01144
G1 X141.327 Y38.326 E0.01144
G1 X141.174 Y38.746 E0.01398
G1 X141.018 Y39.073 E0.01136
G1 X140.790 Y39.453 E0.01390
G1 X140.525 Y39.805 E0.01382
G1 X140.223 Y40.128 E0.01385
G1 X139.891 Y40.417 E0.01379
G1 X139.528 Y40.671 E0.01391
G1 X139.213 Y40.849 E0.01136
G1 X138.805 Y41.031 E0.01398
G1 X138.462 Y41.146 E0.01136
G1 X138.029 Y41.245 E0.01390
G1 X137.589 Y41.300 E0.01390
G1 X137.227 Y41.309 E0.01136
G1 X136.782 Y41.278 E0.01398
G1 X136.422 Y41.218 E0.01144
G1 X136.069 Y41.126 E0.01144
G1 X135.650 Y40.974 E0.01398
G1 X135.323 Y40.818 E0.01136
G1 X134.943 Y40.589 E0.01390
G1 X134.591 Y40.324 E0.01382
G1 X134.267 Y40.023 E0.01385
G1 X133.979 Y39.691 E0.01379
G1 X133.724 Y39.327 E0.01391
G1 X133.546 Y39.012 E0.01136
G1 X133.365 Y38.605 E0.01398
G1 X133.249 Y38.260 E0.01139
G1 X133.150 Y37.829 E0.01388
G1 X133.096 Y37.389 E0.01390
G1 X133.086 Y37.026 E0.01139
G1 X133.117 Y36.583 E0.01390
G1 X133.183 Y36.209 E0.01191
G1 X132.812 Y36.143 F10800.000
;TYPE:External perimeter
G1 F900
G1 X132.959 Y35.602 E0.01758
G1 X133.105 Y35.230 E0.01253
G1 X133.324 Y34.802 E0.01509
G1 X133.538 Y34.465 E0.01253
M73 Q2 S7
G1 X133.835 Y34.086 E0.01509
G1 X134.110 Y33.795 E0.01256
M73 P2 R7
G1 X134.409 Y33.531 E0.01250
G1 X134.798 Y33.248 E0.01509
G1 X135.215 Y33.007 E0.01509
G1 X135.579 Y32.842 E0.01252
G1 X135.956 Y32.708 E0.01256
G1 X136.422 Y32.592 E0.01506
G1 X136.898 Y32.525 E0.01506
G1 X137.379 Y32.508 E0.01509
G1 X137.777 Y32.533 E0.01250
G1 X138.253 Y32.608 E0.01512
G1 X138.640 Y32.708 E0.01253
G1 X139.092 Y32.873 E0.01509
G1 X139.453 Y33.045 E0.01253
G1 X139.864 Y33.292 E0.01506
G1 X140.248 Y33.581 E0.01506
G1 X140.600 Y33.910 E0.01509
G1 X140.915 Y34.272 E0.01503
G1 X141.190 Y34.665 E0.01506
G1 X141.424 Y35.086 E0.01509
G1 X141.583 Y35.453 E0.01253
G1 X141.710 Y35.831 E0.01253
G1 X141.818 Y36.300 E0.01509
G1 X141.877 Y36.778 E0.01509
G1 X141.887 Y37.177 E0.01250
G1 X141.853 Y37.658 E0.01512
G1 X141.787 Y38.052 E0.01253
G1 X141.687 Y38.438 E0.01253
G1 X141.523 Y38.892 E0.01512
G1 X141.351 Y39.251 E0.01250
G1 X141.103 Y39.664 E0.01509
G1 X140.814 Y40.048 E0.01506
G1 X140.486 Y40.400 E0.01509
G1 X140.124 Y40.714 E0.01503
G1 X139.729 Y40.990 E0.01509
G1 X139.383 Y41.186 E0.01250
G1 X138.942 Y41.383 E0.01512
G1 X138.564 Y41.509 E0.01250
G1 X138.095 Y41.617 E0.01509
G1 X137.617 Y41.676 E0.01509
G1 X137.219 Y41.686 E0.01250
G1 X136.738 Y41.653 E0.01512
G1 X136.344 Y41.587 E0.01253
G1 X135.957 Y41.487 E0.01253
G1 X135.504 Y41.322 E0.01512
G1 X135.144 Y41.150 E0.01250
G1 X134.731 Y40.902 E0.01509
G1 X134.348 Y40.613 E0.01506
G1 X133.996 Y40.285 E0.01509
G1 X133.681 Y39.923 E0.01503
G1 X133.405 Y39.529 E0.01509
G1 X133.209 Y39.182 E0.01250
G1 X133.013 Y38.741 E0.01512
G1 X132.886 Y38.362 E0.01253
G1 X132.778 Y37.894 E0.01506
G1 X132.719 Y37.417 E0.01509
G1 X132.709 Y37.017 E0.01253
G1 X132.743 Y36.537 E0.01509
G1 X132.802 Y36.203 E0.01065
G1 X133.193 Y36.022 F10800.000
;WIPE_START
G1 F8640.000
G1 X132.959 Y35.602 E-0.14327
G1 X133.105 Y35.230 E-0.09225
G1 X133.324 Y34.802 E-0.11113
G1 X133.538 Y34.465 E-0.09225
G1 X133.835 Y34.086 E-0.11113
G1 X134.110 Y33.795 E-0.09247
G1 X134.409 Y33.531 E-0.09202
G1 X134.498 Y33.466 E-0.02548
;WIPE_END
G1 E-0.04000 F2100.000
G1 Z0.600 F10800.000
G1 X139.227 Y33.481
G1 Z0.200
G1 E0.80000 F2100.000
;TYPE:Solid infill
;WIDTH:0.435021
G1 F900
G1 X140.194 Y34.448 E0.04459
G1 X140.394 Y34.678 E0.00996
G1 X140.630 Y35.015 E0.01341
G1 X140.831 Y35.378 E0.01353
G1 X141.009 Y35.818 E0.01548
G1 X138.580 Y33.388 E0.11203
G1 X138.119 Y33.255 E0.01565
G1 X137.849 Y33.212 E0.00890
G1 X141.183 Y36.547 E0.15375
G1 X141.218 Y36.827 E0.00921
G1 X141.226 Y37.144 E0.01033
G1 X137.255 Y33.173 E0.18310
G1 X136.956 Y33.183 E0.00977
G1 X136.741 Y33.214 E0.00706
G1 X141.184 Y37.657 E0.20487
G1 X141.089 Y38.116 E0.01529
G1 X136.281 Y33.307 E0.22172
M73 Q3 S7
G1 X135.861 Y33.442 E0.01438
M73 P3 R7
G1 X140.951 Y38.532 E0.23471
G1 X140.780 Y38.916 E0.01369
G1 X135.480 Y33.616 E0.24435
G1 X135.131 Y33.822 E0.01321
G1 X140.574 Y39.264 E0.25093
G1 X140.338 Y39.583 E0.01293
G1 X134.811 Y34.056 E0.25482
G1 X134.521 Y34.321 E0.01280
G1 X140.074 Y39.873 E0.25603
G1 X139.782 Y40.136 E0.01280
G1 X134.260 Y34.613 E0.25465
G1 X134.023 Y34.932 E0.01292
G1 X139.463 Y40.371 E0.25081
G1 X139.116 Y40.579 E0.01318
G1 X133.819 Y35.282 E0.24422
G1 X133.644 Y35.662 E0.01363
G1 X138.735 Y40.752 E0.23472
M73 P4 R7
M73 Q4 S7
G1 X138.317 Y40.889 E0.01434
G1 X133.508 Y36.080 E0.22173
G1 X133.412 Y36.539 E0.01528
G1 X137.855 Y40.982 E0.20486
G1 X137.342 Y41.023 E0.01679
G1 X133.370 Y37.051 E0.18315
G1 X133.378 Y37.368 E0.01033
G1 X133.413 Y37.648 E0.00921
G1 X136.750 Y40.986 E0.15389
G1 X136.481 Y40.941 E0.00890
G1 X136.016 Y40.806 E0.01578
G1 X133.587 Y38.377 E0.11202
G1 X133.799 Y38.885 E0.01795
G1 X133.964 Y39.176 E0.01093
G1 X134.202 Y39.516 E0.01353
G1 X134.403 Y39.748 E0.00999
G1 X135.369 Y40.714 E0.04454
; stop printing object Shape-Cylinder id:0 copy 0
M106 S84.15
;LAYER_CHANGE
;Z:0.4
;HEIGHT:0.2
;BEFORE_LAYER_CHANGE
G92 E0.0
;0.4


;WIPE_START
G1 F8640.000
G1 X134.403 Y39.748 E-0.31543
G1 X134.202 Y39.516 E-0.07079
G1 X133.964 Y39.176 E-0.09585
G1 X133.799 Y38.885 E-0.07739
G1 X133.587 Y38.377 E-0.12710
G1 X133.812 Y38.602 E-0.07344
;WIPE_END
G1 E-0.04000 F2100.000
G1 Z0.600 F10800.000
;AFTER_LAYER_CHANGE
;0.4
M104 S210 ; set temperature
; printing object Shape-Cylinder id:0 copy 0
G1 X133.298 Y38.846
G1 Z0.400
G1 E0.80000 F2100.000
M204 S800
;TYPE:Perimeter
;WIDTH:0.45
G1 F900
G1 X133.122 Y38.374 E0.01705
G1 X133.011 Y37.931 E0.01548
G1 X132.947 Y37.475 E0.01557
G1 X132.931 Y37.097 E0.01280
G1 X132.947 Y36.719 E0.01280
G1 X133.011 Y36.264 E0.01557
G1 X133.122 Y35.821 E0.01547
G1 X133.278 Y35.391 E0.01547
G1 X133.480 Y34.978 E0.01557
G1 X133.677 Y34.655 E0.01280
G1 X133.904 Y34.349 E0.01290
G1 X134.210 Y34.009 E0.01547
G1 X134.552 Y33.702 E0.01557
G1 X134.856 Y33.477 E0.01281
G1 X135.248 Y33.241 E0.01547
G1 X135.662 Y33.048 E0.01548
G1 X136.097 Y32.899 E0.01557
G1 X136.462 Y32.811 E0.01271
G1 X136.920 Y32.747 E0.01566
G1 X137.298 Y32.730 E0.01281
G1 X137.754 Y32.754 E0.01547
G1 X138.209 Y32.826 E0.01557
G1 X138.575 Y32.921 E0.01281
G1 X139.004 Y33.077 E0.01547
G1 X139.418 Y33.279 E0.01557
G1 X139.740 Y33.477 E0.01280
G1 X140.046 Y33.703 E0.01290
G1 X140.386 Y34.009 E0.01547
G1 X140.694 Y34.351 E0.01557
G1 X140.919 Y34.655 E0.01280
G1 X141.118 Y34.980 E0.01290
G1 X141.318 Y35.391 E0.01547
G1 X141.475 Y35.823 E0.01557
G1 X141.570 Y36.189 E0.01281
G1 X141.641 Y36.641 E0.01547
G1 X141.665 Y37.100 E0.01557
G1 X141.649 Y37.475 E0.01271
G1 X141.585 Y37.931 E0.01557
G1 X141.474 Y38.374 E0.01547
G1 X141.318 Y38.804 E0.01547
G1 X141.116 Y39.217 E0.01557
G1 X140.919 Y39.540 E0.01280
G1 X140.694 Y39.844 E0.01280
G1 X140.386 Y40.185 E0.01557
G1 X140.044 Y40.493 E0.01557
G1 X139.740 Y40.718 E0.01280
G1 X139.415 Y40.917 E0.01290
G1 X139.004 Y41.117 E0.01547
G1 X138.572 Y41.274 E0.01557
G1 X138.206 Y41.369 E0.01281
M73 P5 R7
M73 Q5 S7
G1 X137.755 Y41.440 E0.01547
G1 X137.295 Y41.465 E0.01557
G1 X136.920 Y41.448 E0.01271
G1 X136.465 Y41.384 E0.01557
G1 X136.021 Y41.274 E0.01547
G1 X135.592 Y41.117 E0.01547
G1 X135.178 Y40.916 E0.01557
G1 X134.856 Y40.718 E0.01280
G1 X134.552 Y40.493 E0.01280
G1 X134.208 Y40.184 E0.01566
G1 X133.953 Y39.905 E0.01281
G1 X133.678 Y39.539 E0.01547
G1 X133.441 Y39.145 E0.01557
G1 X133.324 Y38.900 E0.00918
M204 S1000
G1 X132.957 Y39.075 F10800.000
M204 S800
;TYPE:External perimeter
G1 F900
G1 X132.732 Y38.493 E0.02112
G1 X132.611 Y38.008 E0.01692
G1 X132.541 Y37.513 E0.01695
G1 X132.523 Y37.097 E0.01407
G1 X132.541 Y36.682 E0.01407
G1 X132.611 Y36.186 E0.01695
G1 X132.732 Y35.701 E0.01692
G1 X132.903 Y35.232 E0.01692
G1 X133.122 Y34.782 E0.01695
G1 X133.339 Y34.427 E0.01406
G1 X133.589 Y34.091 E0.01417
G1 X133.922 Y33.721 E0.01685
G1 X134.294 Y33.386 E0.01695
G1 X134.630 Y33.138 E0.01413
G1 X135.056 Y32.882 E0.01685
G1 X135.509 Y32.670 E0.01692
G1 X135.983 Y32.507 E0.01695
G1 X136.386 Y32.411 E0.01403
G1 X136.883 Y32.341 E0.01698
G1 X137.300 Y32.323 E0.01413
G1 X137.797 Y32.349 E0.01685
G1 X138.292 Y32.427 E0.01695
G1 X138.696 Y32.532 E0.01413
G1 X139.164 Y32.702 E0.01685
G1 X139.614 Y32.922 E0.01695
G1 X139.968 Y33.139 E0.01406
G1 X140.304 Y33.388 E0.01417
G1 X140.674 Y33.721 E0.01685
G1 X141.009 Y34.093 E0.01695
G1 X141.256 Y34.427 E0.01406
G1 X141.475 Y34.784 E0.01417
G1 X141.693 Y35.232 E0.01685
G1 X141.864 Y35.702 E0.01695
G1 X141.969 Y36.106 E0.01413
G1 X142.047 Y36.598 E0.01685
G1 X142.073 Y37.098 E0.01695
G1 X142.055 Y37.513 E0.01403
G1 X141.985 Y38.008 E0.01695
G1 X141.864 Y38.493 E0.01692
G1 X141.693 Y38.963 E0.01692
G1 X141.474 Y39.413 E0.01695
G1 X141.256 Y39.767 E0.01407
G1 X141.009 Y40.101 E0.01407
G1 X140.674 Y40.474 E0.01695
G1 X140.302 Y40.809 E0.01695
G1 X139.968 Y41.056 E0.01406
G1 X139.611 Y41.274 E0.01417
G1 X139.164 Y41.492 E0.01685
G1 X138.693 Y41.664 E0.01695
G1 X138.289 Y41.768 E0.01413
G1 X137.797 Y41.846 E0.01685
G1 X137.297 Y41.872 E0.01695
G1 X136.883 Y41.854 E0.01403
G1 X136.387 Y41.784 E0.01695
G1 X135.902 Y41.663 E0.01692
G1 X135.432 Y41.492 E0.01692
G1 X134.982 Y41.273 E0.01695
G1 X134.628 Y41.056 E0.01407
G1 X134.294 Y40.809 E0.01407
G1 X133.921 Y40.473 E0.01698
G1 X133.639 Y40.165 E0.01413
G1 X133.340 Y39.767 E0.01685
G1 X133.082 Y39.338 E0.01695
G1 X132.982 Y39.130 E0.00782
M204 S1000
G1 X133.193 Y38.753 F10800.000
;WIPE_START
G1 F8640.000
G1 X132.732 Y38.493 E-0.15789
G1 X132.611 Y38.008 E-0.11541
G1 X132.541 Y37.513 E-0.11563
G1 X132.523 Y37.097 E-0.09595
G1 X132.541 Y36.682 E-0.09595
G1 X132.611 Y36.186 E-0.11563
G1 X132.678 Y35.919 E-0.06355
;WIPE_END
G1 E-0.04000 F2100.000
G1 Z0.800 F10800.000
G1 X141.049 Y39.077
G1 Z0.400
G1 E0.80000 F2100.000
;TYPE:Solid infill
;WIDTH:0.469434
G1 F900
G1 X139.851 Y40.256 E0.05963
G1 X139.569 Y40.465 E0.01242
G1 X139.268 Y40.649 E0.01252
G1 X138.885 Y40.836 E0.01512
G1 X138.573 Y40.949 E0.01178
G1 X141.150 Y38.372 E0.12925
G1 X141.285 Y37.872 E0.01837
G1 X141.324 Y37.596 E0.00991
G1 X137.794 Y41.125 E0.17703
G1 X137.163 Y41.153 E0.02241
G1 X141.352 Y36.964 E0.21012
G1 X141.337 Y36.673 E0.01033
G1 X141.297 Y36.416 E0.00921
G1 X136.616 Y41.097 E0.23477
M73 P6 R7
M73 Q6 S7
G1 X136.125 Y40.985 E0.01786
G1 X141.186 Y35.924 E0.25383
G1 X141.023 Y35.483 E0.01665
G1 X135.684 Y40.823 E0.26779
G1 X135.282 Y40.621 E0.01594
G1 X140.822 Y35.082 E0.27784
G1 X140.584 Y34.716 E0.01546
G1 X134.917 Y40.383 E0.28424
G1 X134.585 Y40.112 E0.01520
G1 X140.313 Y34.384 E0.28728
G1 X140.011 Y34.083 E0.01513
G1 X134.282 Y39.812 E0.28735
G1 X134.013 Y39.477 E0.01522
G1 X139.679 Y33.811 E0.28418
G1 X139.314 Y33.573 E0.01546
G1 X133.776 Y39.111 E0.27773
M73 P7 R7
M73 Q7 S7
G1 X133.572 Y38.712 E0.01590
G1 X138.912 Y33.372 E0.26781
G1 X138.471 Y33.210 E0.01666
G1 X133.411 Y38.270 E0.25382
G1 X133.298 Y37.780 E0.01786
G1 X137.979 Y33.099 E0.23476
G1 X137.722 Y33.058 E0.00921
G1 X137.432 Y33.043 E0.01033
G1 X133.242 Y37.232 E0.21012
G1 X133.252 Y36.747 E0.01720
G1 X133.272 Y36.599 E0.00532
G1 X136.800 Y33.072 E0.17691
G1 X136.519 Y33.111 E0.01005
G1 X136.020 Y33.248 E0.01833
G1 X133.446 Y35.822 E0.12912
G1 X133.560 Y35.510 E0.01176
G1 X133.748 Y35.125 E0.01522
G1 X133.931 Y34.826 E0.01242
G1 X134.141 Y34.542 E0.01252
G1 X135.325 Y33.340 E0.05984
; stop printing object Shape-Cylinder id:0 copy 0
M106 S170.85
;LAYER_CHANGE
;Z:0.6
;HEIGHT:0.2
;BEFORE_LAYER_CHANGE
G92 E0.0
;0.6


;WIPE_START
G1 F8640.000
G1 X134.141 Y34.542 E-0.38960
G1 X133.931 Y34.826 E-0.08153
G1 X133.748 Y35.125 E-0.08083
G1 X133.560 Y35.510 E-0.09911
G1 X133.446 Y35.822 E-0.07659
G1 X133.545 Y35.723 E-0.03235
;WIPE_END
G1 E-0.04000 F2100.000
G1 Z0.800 F10800.000
;AFTER_LAYER_CHANGE
;0.6
; printing object Shape-Cylinder id:0 copy 0
G1 X133.200 Y35.600
G1 Z0.600
G1 E0.80000 F2100.000
M204 S800
;TYPE:Perimeter
;WIDTH:0.45
G1 F900
G1 X133.442 Y35.047 E0.02045
G1 X133.679 Y34.653 E0.01556
G1 X133.905 Y34.348 E0.01287
G1 X134.210 Y34.009 E0.01541
G1 X134.550 Y33.704 E0.01548
G1 X134.920 Y33.435 E0.01547
G1 X135.318 Y33.205 E0.01557
G1 X135.659 Y33.049 E0.01271
G1 X136.097 Y32.899 E0.01566
G1 X136.462 Y32.811 E0.01271
G1 X136.920 Y32.747 E0.01565
G1 X137.300 Y32.730 E0.01287
G1 X137.754 Y32.754 E0.01541
G1 X138.208 Y32.826 E0.01556
G1 X138.577 Y32.922 E0.01287
G1 X139.007 Y33.078 E0.01549
G1 X139.350 Y33.242 E0.01288
G1 X139.742 Y33.478 E0.01549
G1 X140.048 Y33.705 E0.01288
G1 X140.386 Y34.009 E0.01541
G1 X140.694 Y34.351 E0.01557
G1 X140.919 Y34.655 E0.01280
G1 X141.116 Y34.978 E0.01280
G1 X141.318 Y35.391 E0.01557
G1 X141.474 Y35.821 E0.01547
G1 X141.585 Y36.264 E0.01547
G1 X141.649 Y36.719 E0.01557
G1 X141.665 Y37.095 E0.01271
G1 X141.641 Y37.556 E0.01565
M73 P8 R7
M73 Q8 S7
G1 X141.585 Y37.932 E0.01287
G1 X141.474 Y38.374 E0.01541
G1 X141.318 Y38.804 E0.01548
G1 X141.116 Y39.217 E0.01557
G1 X140.919 Y39.540 E0.01280
G1 X140.694 Y39.844 E0.01280
G1 X140.386 Y40.185 E0.01557
G1 X140.044 Y40.493 E0.01557
G1 X139.740 Y40.718 E0.01280
G1 X139.418 Y40.916 E0.01280
G1 X139.004 Y41.117 E0.01557
G1 X138.575 Y41.274 E0.01547
G1 X138.131 Y41.384 E0.01547
G1 X137.676 Y41.448 E0.01557
G1 X137.301 Y41.465 E0.01271
G1 X136.839 Y41.440 E0.01565
G1 X136.463 Y41.384 E0.01287
G1 X136.021 Y41.274 E0.01541
G1 X135.592 Y41.117 E0.01548
G1 X135.178 Y40.916 E0.01557
G1 X134.856 Y40.718 E0.01280
G1 X134.552 Y40.493 E0.01280
G1 X134.208 Y40.184 E0.01565
