; generated by PrusaSlicer 2.3.2+win64 on 2021-07-14 at 22:23:02 UTC

; 

; external perimeters extrusion width = 0.45mm
; perimeters extrusion width = 0.45mm
; infill extrusion width = 0.45mm
; solid infill extrusion width = 0.45mm
; top infill extrusion width = 0.40mm
; first layer extrusion width = 0.42mm

M73 P0 R12
M73 Q0 S12
M201 X1000 Y1000 Z200 E5000 ; sets maximum accelerations, mm/sec^2
M203 X200 Y200 Z12 E120 ; sets maximum feedrates, mm/sec
M204 P1250 R1250 T1250 ; sets acceleration (P, T) and retract acceleration (R), mm/sec^2
M205 X8.00 Y8.00 Z0.40 E4.50 ; sets the jerk limits, mm/sec
M205 S0 T0 ; sets the minimum extruding and travel feed rate, mm/sec
M107
;TYPE:Custom
M862.3 P "MK3S" ; printer model check
M862.1 P0.4 ; nozzle diameter check
M115 U3.9.2 ; tell printer latest fw version
G90 ; use absolute coordinates
M83 ; extruder relative mode
M104 S215 ; set extruder temp
M140 S60 ; set bed temp
M190 S60 ; wait for bed temp
M109 S215 ; wait for extruder temp
G28 W ; home all without mesh bed level
G80 ; mesh bed leveling
G1 Y-3.0 F1000.0 ; go outside print area
G92 E0.0
G1 X60.0 E9.0 F1000.0 ; intro line
G1 X100.0 E12.5 F1000.0 ; intro line
G92 E0.0
M221 S95

; Don't change E values below. Excessive value can damage the printer.

M907 E538 ; set extruder motor current
G21 ; set units to millimeters
G90 ; use absolute coordinates
M83 ; use relative distances for extrusion
M900 K0.05 ; Filament gcode LA 1.5
M900 K30 ; Filament gcode LA 1.0
;LAYER_CHANGE
;Z:0.2
;HEIGHT:0.2
;BEFORE_LAYER_CHANGE
G92 E0.0
;0.2


G1 E-0.80000 F2100.000
G1 Z0.400 F10800.000
;AFTER_LAYER_CHANGE
;0.2
G1 X112.634 Y27.928
G1 Z0.200
G1 E0.80000 F2100.000
M204 S1000
;TYPE:Skirt
;WIDTH:0.42
G1 F1200.000
G1 X113.086 Y26.415 E0.04949
G1 X113.861 Y24.959 E0.05173
G1 X114.864 Y23.738 E0.04955
G1 X116.085 Y22.734 E0.04955
G1 X117.543 Y21.958 E0.05180
G1 X119.058 Y21.506 E0.04955
G1 X120.618 Y21.355 E0.04914
G1 X122.186 Y21.509 E0.04942
M73 P1 R12
M73 Q1 S12
G1 X123.766 Y21.991 E0.05180
G1 X125.157 Y22.742 E0.04955
G1 X126.363 Y23.736 E0.04901
G1 X127.357 Y24.942 E0.04901
G1 X128.110 Y26.335 E0.04962
G1 X128.592 Y27.913 E0.05173
G1 X128.746 Y29.485 E0.04955
G1 X128.596 Y31.041 E0.04901
G1 X128.143 Y32.558 E0.04962
G1 X127.368 Y34.014 E0.05173
G1 X126.365 Y35.235 E0.04955
G1 X125.159 Y36.229 E0.04901
G1 X123.769 Y36.981 E0.04955
G1 X122.189 Y37.464 E0.05180
G1 X120.617 Y37.618 E0.04951
G1 X119.060 Y37.468 E0.04905
G1 X117.543 Y37.015 E0.04962
G1 X116.087 Y36.240 E0.05173
G1 X114.866 Y35.237 E0.04955
G1 X113.872 Y34.031 E0.04901
G1 X113.119 Y32.638 E0.04962
G1 X112.637 Y31.061 E0.05173
G1 X112.483 Y29.488 E0.04955
G1 X112.628 Y27.987 E0.04726
G1 X113.003 Y28.024 F10800.000
G1 F1200.000
G1 X113.468 Y26.479 E0.05058
G1 X114.184 Y25.153 E0.04725
G1 X115.132 Y24.003 E0.04673
G1 X116.296 Y23.046 E0.04724
G1 X117.688 Y22.306 E0.04942
G1 X119.132 Y21.876 E0.04724
G1 X120.619 Y21.732 E0.04686
G1 X122.115 Y21.879 E0.04712
G1 X123.622 Y22.340 E0.04942
G1 X124.948 Y23.056 E0.04724
G1 X126.098 Y24.004 E0.04673
G1 X127.055 Y25.168 E0.04724
G1 X127.795 Y26.560 E0.04942
G1 X128.226 Y28.004 E0.04724
G1 X128.369 Y29.487 E0.04673
G1 X128.222 Y30.987 E0.04724
G1 X127.762 Y32.494 E0.04942
G1 X127.045 Y33.820 E0.04725
G1 X126.097 Y34.970 E0.04673
G1 X124.947 Y35.918 E0.04673
G1 X123.622 Y36.634 E0.04721
G1 X122.114 Y37.094 E0.04945
G1 X120.615 Y37.241 E0.04720
G1 X119.130 Y37.097 E0.04677
G1 X117.688 Y36.667 E0.04721
G1 X116.295 Y35.926 E0.04946
G1 X115.131 Y34.969 E0.04724
G1 X114.174 Y33.805 E0.04724
G1 X113.434 Y32.414 E0.04942
G1 X113.004 Y30.970 E0.04724
G1 X112.860 Y29.486 E0.04673
G1 X112.997 Y28.084 E0.04418
G1 X113.371 Y28.120 F10800.000
G1 F1200.000
G1 X113.816 Y26.623 E0.04896
G1 X114.498 Y25.363 E0.04493
G1 X115.400 Y24.269 E0.04446
G1 X116.504 Y23.361 E0.04481
G1 X117.832 Y22.655 E0.04717
G1 X119.205 Y22.245 E0.04493
G1 X120.617 Y22.109 E0.04446
G1 X122.039 Y22.248 E0.04481
G1 X123.478 Y22.688 E0.04717
G1 X124.738 Y23.370 E0.04493
G1 X125.832 Y24.272 E0.04446
G1 X126.740 Y25.376 E0.04481
G1 X127.447 Y26.704 E0.04717
G1 X127.856 Y28.077 E0.04493
G1 X127.992 Y29.485 E0.04434
G1 X127.856 Y30.896 E0.04446
G1 X127.447 Y32.269 E0.04492
G1 X126.740 Y33.598 E0.04718
G1 X125.832 Y34.702 E0.04481
G1 X124.738 Y35.604 E0.04446
G1 X123.478 Y36.285 E0.04492
G1 X122.039 Y36.725 E0.04718
G1 X120.618 Y36.864 E0.04477
G1 X119.205 Y36.728 E0.04450
G1 X117.832 Y36.319 E0.04492
G1 X116.503 Y35.612 E0.04718
G1 X115.399 Y34.704 E0.04481
G1 X114.498 Y33.610 E0.04446
G1 X113.816 Y32.350 E0.04492
G1 X113.376 Y30.911 E0.04718
G1 X113.237 Y29.488 E0.04481
G1 X113.365 Y28.180 E0.04122
; printing object Shape-Cylinder id:0 copy 0
;WIPE_START
G1 F8640.000
G1 X113.816 Y26.623 E-0.37418
G1 X114.498 Y25.363 E-0.33090
G1 X114.649 Y25.179 E-0.05492
;WIPE_END
G1 E-0.04000 F2100.000
G1 Z0.600 F10800.000
G1 X116.485 Y28.674
G1 Z0.200
G1 E0.80000 F2100.000
;TYPE:Perimeter
G1 F1200.000
G1 X116.586 Y28.257 E0.01343
G1 X116.738 Y27.838 E0.01399
G1 X116.894 Y27.511 E0.01136
G1 X117.123 Y27.131 E0.01390
G1 X117.388 Y26.779 E0.01382
G1 X117.689 Y26.457 E0.01382
G1 X118.023 Y26.166 E0.01390
G1 X118.320 Y25.954 E0.01144
G1 X118.635 Y25.769 E0.01144
M73 Q2 S12
G1 X119.037 Y25.581 E0.01390
M73 P2 R12
G1 X119.456 Y25.437 E0.01390
G1 X119.808 Y25.352 E0.01136
G1 X120.247 Y25.290 E0.01390
G1 X120.691 Y25.275 E0.01390
G1 X121.052 Y25.297 E0.01136
G1 X121.490 Y25.367 E0.01390
G1 X121.919 Y25.481 E0.01390
G1 X122.260 Y25.609 E0.01144
G1 X122.590 Y25.766 E0.01144
G1 X122.970 Y25.995 E0.01390
G1 X123.322 Y26.260 E0.01382
G1 X123.644 Y26.561 E0.01382
G1 X123.935 Y26.895 E0.01390
G1 X124.147 Y27.192 E0.01144
G1 X124.333 Y27.507 E0.01144
G1 X124.520 Y27.909 E0.01390
G1 X124.664 Y28.326 E0.01382
G1 X124.763 Y28.755 E0.01382
G1 X124.817 Y29.195 E0.01390
G1 X124.826 Y29.558 E0.01136
G1 X124.795 Y30.002 E0.01398
G1 X124.735 Y30.362 E0.01144
G1 X124.644 Y30.716 E0.01144
G1 X124.492 Y31.132 E0.01390
G1 X124.297 Y31.531 E0.01390
G1 X124.108 Y31.840 E0.01136
G1 X123.841 Y32.194 E0.01392
G1 X123.541 Y32.517 E0.01381
G1 X123.206 Y32.807 E0.01390
G1 X122.911 Y33.018 E0.01136
G1 X122.525 Y33.241 E0.01398
G1 X122.195 Y33.391 E0.01136
G1 X121.776 Y33.536 E0.01390
G1 X121.346 Y33.635 E0.01382
G1 X120.906 Y33.689 E0.01390
G1 X120.544 Y33.698 E0.01136
G1 X120.099 Y33.667 E0.01398
G1 X119.739 Y33.607 E0.01144
G1 X119.385 Y33.516 E0.01144
G1 X118.969 Y33.364 E0.01390
G1 X118.570 Y33.169 E0.01390
G1 X118.261 Y32.980 E0.01136
G1 X117.907 Y32.713 E0.01392
G1 X117.585 Y32.413 E0.01381
G1 X117.294 Y32.078 E0.01390
G1 X117.083 Y31.783 E0.01136
G1 X116.861 Y31.398 E0.01392
G1 X116.682 Y30.996 E0.01381
G1 X116.545 Y30.574 E0.01390
G1 X116.467 Y30.221 E0.01136
G1 X116.412 Y29.778 E0.01398
G1 X116.403 Y29.413 E0.01144
G1 X116.425 Y29.049 E0.01144
G1 X116.475 Y28.733 E0.01002
G1 X116.103 Y28.674 F10800.000
;TYPE:External perimeter
G1 F1200.000
G1 X116.225 Y28.146 E0.01701
G1 X116.390 Y27.692 E0.01512
G1 X116.562 Y27.333 E0.01250
G1 X116.810 Y26.920 E0.01509
G1 X117.099 Y26.536 E0.01506
G1 X117.426 Y26.185 E0.01506
G1 X117.790 Y25.869 E0.01509
G1 X118.115 Y25.637 E0.01253
G1 X118.459 Y25.434 E0.01253
G1 X118.895 Y25.231 E0.01509
G1 X119.350 Y25.074 E0.01509
G1 X119.738 Y24.981 E0.01250
G1 X120.215 Y24.914 E0.01509
G1 X120.696 Y24.898 E0.01509
G1 X121.093 Y24.922 E0.01250
G1 X121.569 Y24.997 E0.01509
G1 X122.034 Y25.122 E0.01509
G1 X122.408 Y25.262 E0.01253
G1 X122.769 Y25.434 E0.01253
G1 X123.181 Y25.682 E0.01509
G1 X123.565 Y25.971 E0.01506
G1 X123.916 Y26.298 E0.01506
G1 X124.232 Y26.662 E0.01509
G1 X124.464 Y26.987 E0.01253
G1 X124.667 Y27.331 E0.01253
G1 X124.870 Y27.767 E0.01509
G1 X125.026 Y28.221 E0.01506
G1 X125.135 Y28.690 E0.01506
G1 X125.193 Y29.167 E0.01509
G1 X125.204 Y29.566 E0.01250
G1 X125.170 Y30.047 E0.01512
G1 X125.104 Y30.441 E0.01253
G1 X125.004 Y30.828 E0.01253
G1 X124.839 Y31.280 E0.01509
G1 X124.628 Y31.713 E0.01509
G1 X124.420 Y32.052 E0.01250
G1 X124.130 Y32.437 E0.01511
G1 X123.803 Y32.788 E0.01505
G1 X123.440 Y33.104 E0.01509
G1 X123.115 Y33.335 E0.01250
G1 X122.697 Y33.576 E0.01512
G1 X122.335 Y33.742 E0.01250
G1 X121.880 Y33.898 E0.01509
G1 X121.412 Y34.007 E0.01506
G1 X120.934 Y34.065 E0.01509
G1 X120.535 Y34.076 E0.01250
G1 X120.054 Y34.042 E0.01512
G1 X119.660 Y33.976 E0.01253
G1 X119.274 Y33.876 E0.01253
G1 X118.821 Y33.711 E0.01509
G1 X118.389 Y33.500 E0.01509
G1 X118.049 Y33.292 E0.01250
G1 X117.664 Y33.002 E0.01511
G1 X117.313 Y32.675 E0.01505
G1 X116.997 Y32.312 E0.01509
G1 X116.766 Y31.987 E0.01250
G1 X116.525 Y31.570 E0.01511
G1 X116.330 Y31.131 E0.01505
G1 X116.181 Y30.674 E0.01509
G1 X116.095 Y30.284 E0.01250
G1 X116.036 Y29.806 E0.01512
G1 X116.025 Y29.406 E0.01253
G1 X116.050 Y29.008 E0.01253
G1 X116.093 Y28.733 E0.00871
G1 X116.480 Y28.542 F10800.000
;WIPE_START
G1 F8640.000
G1 X116.225 Y28.146 E-0.13910
G1 X116.390 Y27.692 E-0.11136
G1 X116.562 Y27.333 E-0.09203
G1 X116.810 Y26.920 E-0.11114
G1 X117.099 Y26.536 E-0.11093
G1 X117.426 Y26.185 E-0.11093
G1 X117.703 Y25.945 E-0.08452
;WIPE_END
G1 E-0.04000 F2100.000
G1 Z0.600 F10800.000
G1 X122.543 Y25.870
G1 Z0.200
G1 E0.80000 F2100.000
;TYPE:Solid infill
;WIDTH:0.435023
G1 F1200.000
G1 X123.510 Y26.837 E0.04456
G1 X123.713 Y27.071 E0.01010
G1 X123.910 Y27.347 E0.01105
G1 X124.082 Y27.639 E0.01105
G1 X124.257 Y28.015 E0.01353
G1 X124.323 Y28.204 E0.00652
G1 X121.892 Y25.773 E0.11208
G1 X121.431 Y25.644 E0.01559
G1 X121.165 Y25.601 E0.00878
G1 X124.500 Y28.936 E0.15375
G1 X124.534 Y29.216 E0.00921
G1 X124.543 Y29.533 E0.01033
G1 X120.572 Y25.562 E0.18309
G1 X120.272 Y25.573 E0.00977
G1 X120.058 Y25.603 E0.00706
G1 X124.501 Y30.046 E0.20487
G1 X124.406 Y30.505 E0.01529
G1 X119.595 Y25.694 E0.22183
G1 X119.178 Y25.832 E0.01432
G1 X124.268 Y30.922 E0.23469
G1 X124.094 Y31.303 E0.01365
G1 X118.797 Y26.005 E0.24426
G1 X118.447 Y26.210 E0.01321
G1 X123.891 Y31.654 E0.25097
G1 X123.654 Y31.972 E0.01292
G1 X118.130 Y26.448 E0.25472
G1 X117.838 Y26.711 E0.01280
G1 X123.391 Y32.263 E0.25600
G1 X123.099 Y32.526 E0.01280
G1 X117.575 Y27.001 E0.25472
G1 X117.339 Y27.320 E0.01293
G1 X122.782 Y32.763 E0.25095
M73 P3 R12
M73 Q3 S12
G1 X122.432 Y32.968 E0.01321
G1 X117.133 Y27.668 E0.24435
G1 X116.961 Y28.052 E0.01369
G1 X122.051 Y33.141 E0.23468
G1 X121.633 Y33.278 E0.01433
G1 X116.823 Y28.468 E0.22179
G1 X116.730 Y28.930 E0.01535
G1 X121.172 Y33.371 E0.20480
G1 X120.659 Y33.412 E0.01679
G1 X116.686 Y29.440 E0.18315
G1 X116.695 Y29.757 E0.01033
G1 X116.729 Y30.037 E0.00922
G1 X120.067 Y33.375 E0.15389
G1 X119.798 Y33.330 E0.00890
G1 X119.333 Y33.195 E0.01578
G1 X116.906 Y30.768 E0.11191
G1 X117.114 Y31.270 E0.01771
G1 X117.321 Y31.630 E0.01355
G1 X117.516 Y31.903 E0.01093
G1 X117.720 Y32.137 E0.01014
G1 X118.680 Y33.097 E0.04425
; stop printing object Shape-Cylinder id:0 copy 0
M106 S84.15
;LAYER_CHANGE
;Z:0.4
;HEIGHT:0.2
;BEFORE_LAYER_CHANGE
G92 E0.0
;0.4


;WIPE_START
G1 F8640.000
G1 X117.720 Y32.137 E-0.31339
G1 X117.516 Y31.903 E-0.07183
G1 X117.321 Y31.630 E-0.07739
G1 X117.114 Y31.270 E-0.09593
G1 X116.906 Y30.768 E-0.12540
G1 X117.138 Y31.001 E-0.07606
;WIPE_END
G1 E-0.04000 F2100.000
G1 Z0.600 F10800.000
;AFTER_LAYER_CHANGE
;0.4
G1 X113.119 Y32.638
G1 Z0.400
G1 E0.80000 F2100.000
;TYPE:Skirt
;WIDTH:0.42
G1 F1385
G1 X112.637 Y31.061 E0.05173
G1 X112.483 Y29.488 E0.04955
G1 X112.634 Y27.928 E0.04914
G1 X113.086 Y26.415 E0.04949
G1 X113.861 Y24.959 E0.05173
G1 X114.864 Y23.738 E0.04955
G1 X116.085 Y22.734 E0.04955
G1 X117.543 Y21.958 E0.05180
G1 X119.058 Y21.506 E0.04955
G1 X120.618 Y21.355 E0.04914
G1 X122.186 Y21.509 E0.04942
G1 X123.766 Y21.991 E0.05180
G1 X125.157 Y22.742 E0.04955
G1 X126.363 Y23.736 E0.04901
G1 X127.357 Y24.942 E0.04901
G1 X128.110 Y26.335 E0.04962
G1 X128.592 Y27.913 E0.05173
G1 X128.746 Y29.485 E0.04955
G1 X128.596 Y31.041 E0.04901
G1 X128.143 Y32.558 E0.04962
G1 X127.368 Y34.014 E0.05173
G1 X126.365 Y35.235 E0.04955
G1 X125.159 Y36.229 E0.04901
G1 X123.769 Y36.981 E0.04955
G1 X122.189 Y37.464 E0.05180
G1 X120.617 Y37.618 E0.04951
G1 X119.060 Y37.468 E0.04905
G1 X117.543 Y37.015 E0.04962
G1 X116.087 Y36.240 E0.05173
G1 X114.866 Y35.237 E0.04955
G1 X113.872 Y34.031 E0.04901
G1 X113.148 Y32.691 E0.04774
G1 X113.486 Y32.511 F10800.000
G1 F1385
G1 X113.434 Y32.414 E0.00347
G1 X113.004 Y30.970 E0.04724
G1 X112.860 Y29.486 E0.04673
G1 X113.007 Y27.986 E0.04724
G1 X113.468 Y26.479 E0.04942
G1 X114.184 Y25.153 E0.04725
G1 X115.132 Y24.003 E0.04673
G1 X116.296 Y23.046 E0.04724
G1 X117.688 Y22.306 E0.04942
G1 X119.132 Y21.876 E0.04724
G1 X120.619 Y21.732 E0.04686
G1 X122.115 Y21.879 E0.04712
G1 X123.622 Y22.340 E0.04942
G1 X124.948 Y23.056 E0.04724
G1 X126.098 Y24.004 E0.04673
G1 X127.055 Y25.168 E0.04724
G1 X127.795 Y26.560 E0.04942
G1 X128.226 Y28.004 E0.04724
G1 X128.369 Y29.487 E0.04673
G1 X128.222 Y30.987 E0.04724
G1 X127.762 Y32.494 E0.04942
G1 X127.045 Y33.820 E0.04725
G1 X126.097 Y34.970 E0.04673
G1 X124.947 Y35.918 E0.04673
G1 X123.622 Y36.634 E0.04721
G1 X122.114 Y37.094 E0.04945
G1 X120.615 Y37.241 E0.04720
G1 X119.130 Y37.097 E0.04677
G1 X117.688 Y36.667 E0.04721
G1 X116.295 Y35.926 E0.04946
G1 X115.131 Y34.969 E0.04724
G1 X114.174 Y33.805 E0.04724
M73 P4 R12
M73 Q4 S12
G1 X113.514 Y32.564 E0.04407
G1 X113.837 Y32.389 F10800.000
G1 F1385
G1 X113.376 Y30.911 E0.04856
G1 X113.237 Y29.488 E0.04481
G1 X113.376 Y28.062 E0.04493
G1 X113.816 Y26.623 E0.04717
G1 X114.498 Y25.363 E0.04493
G1 X115.400 Y24.269 E0.04446
G1 X116.504 Y23.361 E0.04481
G1 X117.832 Y22.655 E0.04717
G1 X119.205 Y22.245 E0.04493
G1 X120.617 Y22.109 E0.04446
G1 X122.039 Y22.248 E0.04481
G1 X123.478 Y22.688 E0.04717
G1 X124.738 Y23.370 E0.04493
G1 X125.832 Y24.272 E0.04446
G1 X126.740 Y25.376 E0.04481
G1 X127.447 Y26.704 E0.04717
G1 X127.856 Y28.077 E0.04493
G1 X127.992 Y29.485 E0.04434
G1 X127.856 Y30.896 E0.04446
G1 X127.447 Y32.269 E0.04492
G1 X126.740 Y33.598 E0.04718
G1 X125.832 Y34.702 E0.04481
G1 X124.738 Y35.604 E0.04446
G1 X123.478 Y36.285 E0.04492
G1 X122.039 Y36.725 E0.04718
G1 X120.618 Y36.864 E0.04477
G1 X119.205 Y36.728 E0.04450
G1 X117.832 Y36.319 E0.04492
G1 X116.503 Y35.612 E0.04718
G1 X115.399 Y34.704 E0.04481
G1 X114.498 Y33.610 E0.04446
G1 X113.866 Y32.442 E0.04163
; printing object Shape-Cylinder id:0 copy 0
;WIPE_START
G1 F8640.000
G1 X113.376 Y30.911 E-0.37125
G1 X113.237 Y29.488 E-0.33002
G1 X113.262 Y29.235 E-0.05873
;WIPE_END
G1 E-0.04000 F2100.000
G1 Z0.800 F10800.000
G1 X116.595 Y31.193
G1 Z0.400
G1 E0.80000 F2100.000
M204 S800
;TYPE:Perimeter
;WIDTH:0.45
G1 F1385
G1 X116.438 Y30.763 E0.01547
G1 X116.328 Y30.320 E0.01547
G1 X116.264 Y29.864 E0.01557
G1 X116.247 Y29.489 E0.01271
G1 X116.272 Y29.027 E0.01566
G1 X116.327 Y28.655 E0.01275
G1 X116.438 Y28.210 E0.01552
G1 X116.596 Y27.778 E0.01557
G1 X116.758 Y27.438 E0.01275
G1 X116.995 Y27.042 E0.01562
G1 X117.220 Y26.739 E0.01275
G1 X117.527 Y26.399 E0.01552
G1 X117.866 Y26.093 E0.01547
G1 X118.236 Y25.824 E0.01547
G1 X118.634 Y25.594 E0.01557
G1 X118.976 Y25.438 E0.01271
G1 X119.413 Y25.288 E0.01566
G1 X119.779 Y25.200 E0.01271
G1 X120.237 Y25.136 E0.01566
G1 X120.613 Y25.119 E0.01275
G1 X121.071 Y25.143 E0.01552
G1 X121.525 Y25.215 E0.01557
G1 X121.890 Y25.310 E0.01275
G1 X122.323 Y25.468 E0.01562
G1 X122.663 Y25.630 E0.01275
G1 X123.059 Y25.867 E0.01562
G1 X123.362 Y26.092 E0.01275
G1 X123.703 Y26.399 E0.01552
G1 X124.010 Y26.740 E0.01557
G1 X124.235 Y27.044 E0.01280
G1 X124.433 Y27.367 E0.01280
G1 X124.634 Y27.780 E0.01557
G1 X124.791 Y28.210 E0.01547
G1 X124.901 Y28.653 E0.01547
G1 X124.965 Y29.109 E0.01557
G1 X124.982 Y29.484 E0.01271
G1 X124.958 Y29.946 E0.01566
G1 X124.902 Y30.318 E0.01275
G1 X124.791 Y30.763 E0.01552
G1 X124.634 Y31.193 E0.01547
G1 X124.433 Y31.606 E0.01557
G1 X124.235 Y31.929 E0.01280
G1 X124.010 Y32.233 E0.01280
G1 X123.703 Y32.575 E0.01557
G1 X123.361 Y32.882 E0.01557
G1 X123.057 Y33.107 E0.01280
G1 X122.734 Y33.305 E0.01280
G1 X122.321 Y33.506 E0.01557
G1 X121.891 Y33.663 E0.01547
G1 X121.448 Y33.773 E0.01547
G1 X120.992 Y33.837 E0.01557
G1 X120.617 Y33.854 E0.01271
G1 X120.155 Y33.830 E0.01566
G1 X119.783 Y33.774 E0.01275
