; generated by PrusaSlicer 2.3.2+win64 on 2021-07-21 at 06:08:59 UTC

; 

; external perimeters extrusion width = 0.45mm
; perimeters extrusion width = 0.45mm
; infill extrusion width = 0.45mm
; solid infill extrusion width = 0.45mm
; top infill extrusion width = 0.40mm
; first layer extrusion width = 0.42mm

M73 P0 R7
M73 Q0 S7
M201 X1000 Y1000 Z200 E5000 ; sets maximum accelerations, mm/sec^2
M203 X200 Y200 Z12 E120 ; sets maximum feedrates, mm/sec
M204 P1250 R1250 T1250 ; sets acceleration (P, T) and retract acceleration (R), mm/sec^2
M205 X8.00 Y8.00 Z0.40 E4.50 ; sets the jerk limits, mm/sec
M205 S0 T0 ; sets the minimum extruding and travel feed rate, mm/sec
M107
;TYPE:Custom
M862.3 P "MK3S" ; printer model check
M862.1 P0.4 ; nozzle diameter check
M115 U3.9.2 ; tell printer latest fw version
G90 ; use absolute coordinates
M83 ; extruder relative mode
M104 S215 ; set extruder temp
M140 S60 ; set bed temp
M190 S60 ; wait for bed temp
M109 S215 ; wait for extruder temp
G28 W ; home all without mesh bed level
G80 ; mesh bed leveling
G1 Y-3.0 F1000.0 ; go outside print area
G92 E0.0
;G1 X60.0 E6.0 F1000.0 ; intro line
;G1 X100.0 E9.5 F1000.0 ; intro line
;G92 E0.0
M221 S95

; Don't change E values below. Excessive value can damage the printer.
M907 E430 ; set extruder motor current
G21 ; set units to millimeters
G90 ; use absolute coordinates
M83 ; use relative distances for extrusion
M900 K0.05 ; Filament gcode LA 1.5
M900 K30 ; Filament gcode LA 1.0
;LAYER_CHANGE
;Z:0.2
;HEIGHT:0.2
;BEFORE_LAYER_CHANGE
G92 E0.0
;0.2


G1 E-0.80000 F2100.000
G1 Z0.400 F10800.000
;AFTER_LAYER_CHANGE
;0.2
; printing object Shape-Cylinder id:0 copy 0
G1 X155.744 Y30.722
G1 Z0.200
G1 E0.80000 F2100.000
M204 S1000
;TYPE:Perimeter
;WIDTH:0.42
G1 F900
G1 X155.866 Y30.296 E0.01390
G1 X155.999 Y29.958 E0.01139
G1 X156.201 Y29.561 E0.01395
G1 X156.397 Y29.255 E0.01139
G1 X156.671 Y28.904 E0.01395
G1 X156.923 Y28.639 E0.01147
G1 X157.195 Y28.397 E0.01141
G1 X157.554 Y28.137 E0.01391
G1 X157.938 Y27.915 E0.01390
G1 X158.270 Y27.764 E0.01144
G1 X158.615 Y27.642 E0.01147
G1 X159.044 Y27.535 E0.01388
G1 X159.481 Y27.473 E0.01382
G1 X159.924 Y27.458 E0.01390
G1 X160.286 Y27.480 E0.01136
G1 X160.726 Y27.550 E0.01398
G1 X161.078 Y27.641 E0.01139
G1 X161.496 Y27.793 E0.01395
G1 X161.824 Y27.949 E0.01139
G1 X162.203 Y28.177 E0.01387
G1 X162.556 Y28.443 E0.01382
G1 X162.879 Y28.744 E0.01385
G1 X163.167 Y29.076 E0.01379
G1 X163.420 Y29.437 E0.01382
G1 X163.635 Y29.825 E0.01390
G1 X163.781 Y30.160 E0.01144
G1 X163.896 Y30.506 E0.01144
G1 X163.996 Y30.938 E0.01390
G1 X164.050 Y31.378 E0.01390
G1 X164.060 Y31.740 E0.01136
G1 X164.029 Y32.185 E0.01398
G1 X163.968 Y32.545 E0.01144
G1 X163.877 Y32.898 E0.01144
G1 X163.724 Y33.318 E0.01398
G1 X163.568 Y33.645 E0.01136
G1 X163.340 Y34.025 E0.01390
G1 X163.075 Y34.377 E0.01382
G1 X162.773 Y34.700 E0.01385
G1 X162.441 Y34.988 E0.01379
G1 X162.078 Y35.243 E0.01391
G1 X161.763 Y35.421 E0.01136
G1 X161.355 Y35.603 E0.01398
G1 X161.012 Y35.718 E0.01136
G1 X160.580 Y35.817 E0.01390
G1 X160.139 Y35.871 E0.01390
G1 X159.777 Y35.881 E0.01136
G1 X159.332 Y35.850 E0.01398
G1 X158.972 Y35.790 E0.01144
G1 X158.619 Y35.698 E0.01144
G1 X158.200 Y35.546 E0.01398
G1 X157.873 Y35.390 E0.01136
G1 X157.493 Y35.161 E0.01390
G1 X157.141 Y34.896 E0.01382
G1 X156.818 Y34.595 E0.01385
G1 X156.529 Y34.263 E0.01379
G1 X156.275 Y33.899 E0.01391
G1 X156.096 Y33.584 E0.01136
G1 X155.915 Y33.176 E0.01398
G1 X155.799 Y32.832 E0.01139
G1 X155.700 Y32.401 E0.01388
G1 X155.646 Y31.961 E0.01390
G1 X155.636 Y31.597 E0.01139
G1 X155.667 Y31.155 E0.01390
G1 X155.734 Y30.781 E0.01191
G1 X155.362 Y30.715 F10800.000
;TYPE:External perimeter
G1 F900
G1 X155.509 Y30.174 E0.01758
G1 X155.655 Y29.802 E0.01253
G1 X155.874 Y29.374 E0.01509
G1 X156.088 Y29.037 E0.01253
G1 X156.385 Y28.657 E0.01509
G1 X156.660 Y28.367 E0.01256
G1 X156.959 Y28.103 E0.01250
G1 X157.348 Y27.820 E0.01509
G1 X157.765 Y27.579 E0.01509
G1 X158.129 Y27.414 E0.01252
G1 X158.506 Y27.280 E0.01256
G1 X158.972 Y27.164 E0.01506
G1 X159.448 Y27.097 E0.01506
G1 X159.929 Y27.080 E0.01509
G1 X160.327 Y27.105 E0.01250
G1 X160.803 Y27.180 E0.01512
G1 X161.190 Y27.280 E0.01253
G1 X161.642 Y27.445 E0.01509
G1 X162.003 Y27.617 E0.01253
M73 Q1 S7
G1 X162.415 Y27.864 E0.01506
G1 X162.798 Y28.153 E0.01506
G1 X163.150 Y28.482 E0.01509
G1 X163.465 Y28.844 E0.01503
G1 X163.740 Y29.237 E0.01506
G1 X163.974 Y29.658 E0.01509
G1 X164.133 Y30.024 E0.01253
G1 X164.260 Y30.403 E0.01253
G1 X164.368 Y30.872 E0.01509
G1 X164.427 Y31.350 E0.01509
G1 X164.437 Y31.749 E0.01250
G1 X164.404 Y32.230 E0.01512
G1 X164.338 Y32.624 E0.01253
G1 X164.238 Y33.010 E0.01253
G1 X164.073 Y33.464 E0.01512
G1 X163.901 Y33.823 E0.01250
G1 X163.653 Y34.236 E0.01509
G1 X163.364 Y34.620 E0.01506
G1 X163.036 Y34.972 E0.01509
M73 P1 R7
G1 X162.674 Y35.286 E0.01503
G1 X162.280 Y35.562 E0.01509
G1 X161.933 Y35.758 E0.01250
G1 X161.492 Y35.955 E0.01512
G1 X161.114 Y36.081 E0.01250
G1 X160.645 Y36.189 E0.01509
G1 X160.167 Y36.248 E0.01509
G1 X159.769 Y36.258 E0.01250
G1 X159.288 Y36.225 E0.01512
G1 X158.894 Y36.159 E0.01253
G1 X158.507 Y36.059 E0.01253
G1 X158.054 Y35.894 E0.01512
G1 X157.694 Y35.722 E0.01250
G1 X157.282 Y35.474 E0.01509
G1 X156.898 Y35.185 E0.01506
G1 X156.546 Y34.857 E0.01509
G1 X156.231 Y34.495 E0.01503
G1 X155.955 Y34.101 E0.01509
G1 X155.759 Y33.754 E0.01250
G1 X155.563 Y33.313 E0.01512
G1 X155.436 Y32.934 E0.01253
G1 X155.328 Y32.466 E0.01506
G1 X155.269 Y31.989 E0.01509
G1 X155.259 Y31.589 E0.01253
G1 X155.293 Y31.109 E0.01509
G1 X155.352 Y30.774 E0.01065
G1 X155.743 Y30.594 F10800.000
;WIPE_START
G1 F8640.000
G1 X155.509 Y30.174 E-0.14327
G1 X155.655 Y29.802 E-0.09225
G1 X155.874 Y29.374 E-0.11113
G1 X156.088 Y29.037 E-0.09225
G1 X156.385 Y28.657 E-0.11113
G1 X156.660 Y28.367 E-0.09247
G1 X156.959 Y28.103 E-0.09202
G1 X157.048 Y28.038 E-0.02548
;WIPE_END
G1 E-0.04000 F2100.000
G1 Z0.600 F10800.000
G1 X161.777 Y28.053
G1 Z0.200
G1 E0.80000 F2100.000
;TYPE:Solid infill
;WIDTH:0.435021
G1 F900
G1 X162.744 Y29.020 E0.04459
G1 X162.944 Y29.250 E0.00996
G1 X163.180 Y29.587 E0.01341
G1 X163.381 Y29.950 E0.01353
G1 X163.560 Y30.390 E0.01548
G1 X161.130 Y27.960 E0.11203
G1 X160.669 Y27.827 E0.01565
G1 X160.399 Y27.784 E0.00890
G1 X163.733 Y31.119 E0.15375
G1 X163.768 Y31.399 E0.00921
G1 X163.776 Y31.716 E0.01033
G1 X159.805 Y27.745 E0.18310
G1 X159.506 Y27.755 E0.00977
G1 X159.291 Y27.785 E0.00706
G1 X163.735 Y32.229 E0.20487
G1 X163.639 Y32.688 E0.01529
G1 X158.831 Y27.879 E0.22172
G1 X158.411 Y28.014 E0.01438
G1 X163.501 Y33.104 E0.23471
M73 Q2 S7
G1 X163.330 Y33.488 E0.01369
G1 X158.030 Y28.188 E0.24435
M73 P2 R7
G1 X157.681 Y28.394 E0.01321
G1 X163.124 Y33.836 E0.25093
G1 X162.888 Y34.155 E0.01293
G1 X157.361 Y28.628 E0.25482
G1 X157.071 Y28.893 E0.01280
G1 X162.624 Y34.445 E0.25603
G1 X162.333 Y34.708 E0.01280
G1 X156.810 Y29.185 E0.25465
G1 X156.573 Y29.504 E0.01292
G1 X162.013 Y34.943 E0.25081
G1 X161.666 Y35.151 E0.01318
G1 X156.369 Y29.854 E0.24422
G1 X156.194 Y30.234 E0.01363
G1 X161.285 Y35.324 E0.23472
M73 Q3 S7
G1 X160.867 Y35.461 E0.01434
G1 X156.058 Y30.652 E0.22173
M73 P3 R7
G1 X155.962 Y31.111 E0.01528
G1 X160.406 Y35.554 E0.20486
G1 X159.892 Y35.595 E0.01679
G1 X155.920 Y31.623 E0.18315
G1 X155.928 Y31.940 E0.01033
G1 X155.963 Y32.220 E0.00921
G1 X159.300 Y35.558 E0.15389
G1 X159.031 Y35.513 E0.00890
G1 X158.566 Y35.378 E0.01578
G1 X156.137 Y32.949 E0.11202
G1 X156.349 Y33.456 E0.01795
G1 X156.514 Y33.748 E0.01093
G1 X156.752 Y34.088 E0.01353
G1 X156.953 Y34.320 E0.00999
G1 X157.919 Y35.286 E0.04454
; stop printing object Shape-Cylinder id:0 copy 0
M106 S84.15
;LAYER_CHANGE
;Z:0.4
;HEIGHT:0.2
;BEFORE_LAYER_CHANGE
G92 E0.0
;0.4


;WIPE_START
G1 F8640.000
G1 X156.953 Y34.320 E-0.31543
G1 X156.752 Y34.088 E-0.07079
G1 X156.514 Y33.748 E-0.09585
G1 X156.349 Y33.456 E-0.07739
G1 X156.137 Y32.949 E-0.12710
G1 X156.362 Y33.174 E-0.07344
;WIPE_END
G1 E-0.04000 F2100.000
G1 Z0.600 F10800.000
;AFTER_LAYER_CHANGE
;0.4
M104 S210 ; set temperature
; printing object Shape-Cylinder id:0 copy 0
G1 X155.848 Y33.418
G1 Z0.400
G1 E0.80000 F2100.000
M204 S800
;TYPE:Perimeter
;WIDTH:0.45
G1 F900
G1 X155.672 Y32.946 E0.01705
G1 X155.561 Y32.503 E0.01548
G1 X155.497 Y32.047 E0.01557
G1 X155.481 Y31.669 E0.01280
G1 X155.497 Y31.291 E0.01280
G1 X155.561 Y30.836 E0.01557
G1 X155.672 Y30.393 E0.01547
G1 X155.828 Y29.963 E0.01547
G1 X156.030 Y29.550 E0.01557
G1 X156.227 Y29.227 E0.01280
G1 X156.454 Y28.921 E0.01290
G1 X156.760 Y28.581 E0.01547
G1 X157.102 Y28.274 E0.01557
G1 X157.406 Y28.049 E0.01281
G1 X157.798 Y27.813 E0.01547
G1 X158.212 Y27.620 E0.01548
G1 X158.647 Y27.471 E0.01557
G1 X159.012 Y27.383 E0.01271
G1 X159.470 Y27.319 E0.01566
G1 X159.848 Y27.302 E0.01281
G1 X160.304 Y27.326 E0.01547
G1 X160.759 Y27.398 E0.01557
G1 X161.125 Y27.493 E0.01281
G1 X161.554 Y27.649 E0.01547
G1 X161.968 Y27.851 E0.01557
G1 X162.290 Y28.049 E0.01280
G1 X162.596 Y28.275 E0.01290
G1 X162.936 Y28.581 E0.01547
G1 X163.244 Y28.923 E0.01557
G1 X163.469 Y29.227 E0.01280
G1 X163.668 Y29.552 E0.01290
G1 X163.868 Y29.963 E0.01547
G1 X164.025 Y30.395 E0.01557
G1 X164.120 Y30.761 E0.01281
G1 X164.191 Y31.213 E0.01547
G1 X164.215 Y31.672 E0.01557
G1 X164.199 Y32.047 E0.01271
G1 X164.135 Y32.503 E0.01557
G1 X164.024 Y32.946 E0.01547
G1 X163.868 Y33.376 E0.01547
G1 X163.666 Y33.789 E0.01557
G1 X163.469 Y34.111 E0.01280
G1 X163.244 Y34.416 E0.01280
G1 X162.936 Y34.757 E0.01557
G1 X162.594 Y35.065 E0.01557
G1 X162.290 Y35.290 E0.01280
G1 X161.965 Y35.489 E0.01290
G1 X161.555 Y35.689 E0.01547
G1 X161.122 Y35.846 E0.01557
G1 X160.756 Y35.941 E0.01281
G1 X160.305 Y36.012 E0.01547
G1 X159.845 Y36.037 E0.01557
G1 X159.470 Y36.020 E0.01271
G1 X159.015 Y35.956 E0.01557
G1 X158.571 Y35.846 E0.01547
G1 X158.142 Y35.689 E0.01547
G1 X157.728 Y35.488 E0.01557
G1 X157.406 Y35.290 E0.01280
G1 X157.102 Y35.065 E0.01280
G1 X156.758 Y34.756 E0.01566
G1 X156.503 Y34.476 E0.01281
G1 X156.228 Y34.111 E0.01547
G1 X155.991 Y33.717 E0.01557
G1 X155.874 Y33.472 E0.00918
M204 S1000
G1 X155.507 Y33.647 F10800.000
M204 S800
;TYPE:External perimeter
G1 F900
G1 X155.282 Y33.065 E0.02112
M73 Q4 S7
G1 X155.161 Y32.580 E0.01692
G1 X155.091 Y32.084 E0.01695
G1 X155.073 Y31.669 E0.01407
G1 X155.091 Y31.254 E0.01407
G1 X155.161 Y30.758 E0.01695
G1 X155.282 Y30.273 E0.01692
G1 X155.453 Y29.804 E0.01692
G1 X155.672 Y29.354 E0.01695
G1 X155.890 Y28.999 E0.01406
G1 X156.139 Y28.663 E0.01417
G1 X156.472 Y28.293 E0.01685
G1 X156.844 Y27.958 E0.01695
G1 X157.180 Y27.710 E0.01413
G1 X157.606 Y27.454 E0.01685
M73 P4 R7
G1 X158.059 Y27.242 E0.01692
G1 X158.533 Y27.079 E0.01695
G1 X158.936 Y26.982 E0.01403
G1 X159.433 Y26.913 E0.01698
G1 X159.850 Y26.895 E0.01413
G1 X160.347 Y26.921 E0.01685
G1 X160.842 Y26.999 E0.01695
G1 X161.246 Y27.104 E0.01413
G1 X161.714 Y27.274 E0.01685
G1 X162.164 Y27.494 E0.01695
G1 X162.518 Y27.711 E0.01406
G1 X162.854 Y27.960 E0.01417
G1 X163.224 Y28.293 E0.01685
G1 X163.559 Y28.665 E0.01695
G1 X163.807 Y28.999 E0.01406
G1 X164.025 Y29.356 E0.01417
G1 X164.243 Y29.804 E0.01685
G1 X164.414 Y30.274 E0.01695
G1 X164.519 Y30.678 E0.01413
G1 X164.597 Y31.170 E0.01685
G1 X164.623 Y31.670 E0.01695
G1 X164.605 Y32.084 E0.01403
G1 X164.535 Y32.580 E0.01695
G1 X164.414 Y33.065 E0.01692
G1 X164.243 Y33.535 E0.01692
G1 X164.024 Y33.985 E0.01695
G1 X163.807 Y34.339 E0.01407
G1 X163.559 Y34.673 E0.01407
G1 X163.224 Y35.046 E0.01695
G1 X162.852 Y35.381 E0.01695
G1 X162.518 Y35.628 E0.01406
G1 X162.161 Y35.846 E0.01417
G1 X161.714 Y36.064 E0.01685
G1 X161.243 Y36.236 E0.01695
G1 X160.839 Y36.340 E0.01413
G1 X160.347 Y36.418 E0.01685
G1 X159.847 Y36.444 E0.01695
G1 X159.433 Y36.426 E0.01403
G1 X158.937 Y36.356 E0.01695
G1 X158.452 Y36.235 E0.01692
G1 X157.982 Y36.064 E0.01692
G1 X157.532 Y35.845 E0.01695
G1 X157.178 Y35.628 E0.01407
G1 X156.844 Y35.381 E0.01407
G1 X156.471 Y35.045 E0.01698
G1 X156.189 Y34.737 E0.01413
G1 X155.890 Y34.339 E0.01685
G1 X155.632 Y33.910 E0.01695
G1 X155.532 Y33.702 E0.00782
M204 S1000
G1 X155.743 Y33.325 F10800.000
;WIPE_START
G1 F8640.000
G1 X155.282 Y33.065 E-0.15789
G1 X155.161 Y32.580 E-0.11541
G1 X155.091 Y32.084 E-0.11563
G1 X155.073 Y31.669 E-0.09595
G1 X155.091 Y31.254 E-0.09595
G1 X155.161 Y30.758 E-0.11563
G1 X155.228 Y30.491 E-0.06355
;WIPE_END
G1 E-0.04000 F2100.000
G1 Z0.800 F10800.000
G1 X163.599 Y33.649
G1 Z0.400
G1 E0.80000 F2100.000
;TYPE:Solid infill
;WIDTH:0.469434
G1 F900
G1 X162.401 Y34.828 E0.05963
G1 X162.120 Y35.037 E0.01242
G1 X161.818 Y35.221 E0.01252
G1 X161.435 Y35.408 E0.01512
G1 X161.123 Y35.521 E0.01178
G1 X163.700 Y32.944 E0.12925
G1 X163.835 Y32.444 E0.01837
G1 X163.874 Y32.168 E0.00991
G1 X160.344 Y35.697 E0.17703
G1 X159.713 Y35.725 E0.02241
G1 X163.902 Y31.536 E0.21012
G1 X163.887 Y31.245 E0.01033
G1 X163.847 Y30.988 E0.00921
G1 X159.166 Y35.669 E0.23477
G1 X158.675 Y35.557 E0.01786
G1 X163.736 Y30.496 E0.25383
M73 Q5 S7
G1 X163.573 Y30.055 E0.01665
M73 P5 R7
G1 X158.234 Y35.395 E0.26779
G1 X157.832 Y35.193 E0.01594
G1 X163.372 Y29.653 E0.27784
G1 X163.134 Y29.288 E0.01546
G1 X157.467 Y34.955 E0.28424
G1 X157.135 Y34.684 E0.01520
G1 X162.863 Y28.956 E0.28728
G1 X162.561 Y28.655 E0.01513
G1 X156.832 Y34.384 E0.28735
G1 X156.563 Y34.049 E0.01522
G1 X162.229 Y28.383 E0.28418
G1 X161.864 Y28.145 E0.01546
G1 X156.326 Y33.683 E0.27773
G1 X156.122 Y33.284 E0.01590
G1 X161.462 Y27.944 E0.26781
M73 P6 R7
M73 Q6 S7
G1 X161.021 Y27.782 E0.01666
G1 X155.961 Y32.842 E0.25382
G1 X155.848 Y32.351 E0.01786
G1 X160.529 Y27.671 E0.23476
G1 X160.272 Y27.630 E0.00921
G1 X159.982 Y27.615 E0.01033
G1 X155.792 Y31.804 E0.21012
G1 X155.802 Y31.319 E0.01720
G1 X155.823 Y31.171 E0.00532
G1 X159.350 Y27.644 E0.17691
G1 X159.069 Y27.683 E0.01005
G1 X158.571 Y27.820 E0.01833
G1 X155.996 Y30.394 E0.12912
G1 X156.110 Y30.082 E0.01176
G1 X156.298 Y29.697 E0.01522
G1 X156.481 Y29.398 E0.01242
G1 X156.691 Y29.114 E0.01252
G1 X157.875 Y27.912 E0.05984
; stop printing object Shape-Cylinder id:0 copy 0
M106 S170.85
;LAYER_CHANGE
;Z:0.6
;HEIGHT:0.2
;BEFORE_LAYER_CHANGE
G92 E0.0
;0.6


;WIPE_START
G1 F8640.000
G1 X156.691 Y29.114 E-0.38960
G1 X156.481 Y29.398 E-0.08153
G1 X156.298 Y29.697 E-0.08083
G1 X156.110 Y30.082 E-0.09911
G1 X155.996 Y30.394 E-0.07659
G1 X156.095 Y30.295 E-0.03235
;WIPE_END
G1 E-0.04000 F2100.000
G1 Z0.800 F10800.000
;AFTER_LAYER_CHANGE
;0.6
; printing object Shape-Cylinder id:0 copy 0
G1 X155.750 Y30.172
G1 Z0.600
G1 E0.80000 F2100.000
M204 S800
;TYPE:Perimeter
;WIDTH:0.45
G1 F900
G1 X155.992 Y29.619 E0.02045
G1 X156.229 Y29.225 E0.01556
G1 X156.455 Y28.920 E0.01287
G1 X156.760 Y28.581 E0.01541
G1 X157.100 Y28.275 E0.01548
G1 X157.470 Y28.007 E0.01547
G1 X157.868 Y27.777 E0.01557
G1 X158.210 Y27.621 E0.01271
G1 X158.647 Y27.471 E0.01566
G1 X159.012 Y27.383 E0.01271
G1 X159.470 Y27.319 E0.01565
G1 X159.850 Y27.302 E0.01287
G1 X160.304 Y27.326 E0.01541
G1 X160.759 Y27.398 E0.01556
G1 X161.127 Y27.494 E0.01287
G1 X161.557 Y27.650 E0.01549
G1 X161.900 Y27.814 E0.01288
G1 X162.292 Y28.050 E0.01549
G1 X162.598 Y28.277 E0.01288
G1 X162.936 Y28.581 E0.01541
G1 X163.244 Y28.923 E0.01557
G1 X163.469 Y29.227 E0.01280
G1 X163.666 Y29.550 E0.01280
G1 X163.868 Y29.963 E0.01557
G1 X164.024 Y30.393 E0.01547
G1 X164.135 Y30.836 E0.01547
G1 X164.199 Y31.291 E0.01557
G1 X164.215 Y31.667 E0.01271
G1 X164.191 Y32.128 E0.01565
G1 X164.135 Y32.504 E0.01287
G1 X164.024 Y32.946 E0.01541
G1 X163.868 Y33.376 E0.01548
G1 X163.666 Y33.789 E0.01557
G1 X163.469 Y34.111 E0.01280
G1 X163.244 Y34.416 E0.01280
G1 X162.936 Y34.757 E0.01557
G1 X162.594 Y35.065 E0.01557
G1 X162.290 Y35.290 E0.01280
G1 X161.968 Y35.488 E0.01280
G1 X161.554 Y35.689 E0.01557
G1 X161.125 Y35.846 E0.01547
G1 X160.681 Y35.956 E0.01547
G1 X160.226 Y36.020 E0.01557
G1 X159.851 Y36.037 E0.01271
G1 X159.389 Y36.012 E0.01565
M73 Q7 S7
G1 X159.013 Y35.956 E0.01287
G1 X158.571 Y35.846 E0.01541
G1 X158.142 Y35.689 E0.01548
G1 X157.728 Y35.488 E0.01557
G1 X157.406 Y35.290 E0.01280
G1 X157.102 Y35.065 E0.01280
G1 X156.758 Y34.756 E0.01565
G1 X156.501 Y34.475 E0.01287
